!!!!SEGMENT: pl-wtm--r-2470_hertz-michal--stary-krol-op-17.krn
!!!cenid: 18xx:2390
!!!COM: Hertz, Michał
!!!COM-rismid: pe41023359
!!!CDT: 1844/09/28-~1918
!!!CNT: Polish
!!!OTL: Stary Król op. 17
!!!PDT:
!!!AGN:
!!!SMS-siglum: PL-Wtm
!!!SMS-shelfmark: R 2470
!!!SMS-shelfwork: W
!!!SMS-variant:
!!!SMS-altvar:
!!!NIFC-rismid: 1001085529
!!!URL-scan: http://repozytorium.nifc.pl/skany/pl-wtm-nut--r2470
!!!ONB-nifc:
**kern	**dynam	**kern	**dynam	**kern	**dynam	**kern	**dynam	**kern	**dynam	**kern	**text	**text	**dynam	**kern	**dynam	**kern	**dynam	**kern	**dynam	**kern	**dynam	**kern	**dynam	**kern	**dynam	**kern	**dynam	**kern	**dynam	**kern	**dynam	**kern	**dynam
*part16	*part16	*part15	*part15	*part14	*part14	*part13	*part13	*part12	*part12	*part11	*part11	*part11	*part11	*part10	*part10	*part9	*part9	*part8	*part8	*part7	*part7	*part6	*part6	*part5	*part5	*part4	*part4	*part3	*part3	*part2	*part2	*part1	*part1
*group7	*	*group7	*	*group6	*	*group5	*	*group5	*	*group4	*group4	*group4	*	*group4	*	*group4	*	*group4	*	*group3	*	*group3	*	*group2	*	*group2	*	*group2	*	*group1	*	*group1	*
*staff16	*	*staff15	*	*staff14	*	*staff13	*	*staff12	*	*staff11	*staff11	*staff11	*	*staff10	*	*staff9	*	*staff8	*	*staff7	*	*staff6	*	*staff5	*	*staff4	*	*staff3	*	*staff2	*	*staff1	*
*Iempty	*	*Iempty	*	*Iviola	*	*Iempty	*	*Iempty	*	*Ivox	*	*	*	*Iempty	*	*Iempty	*	*Iempty	*	*Icor	*	*Icor	*	*Ifagot	*	*Iempty	*	*Ioboe	*	*Iempty	*	*Iempty	*
*I"Bassi	*	*I"Bassi	*	*I"Viola	*	*I"2o	*	*I"Viol 1o	*	*I"[Voce]	*	*	*	*I"Timpani in E. H Piatti	*	*I"Tromboni e Tuba	*	*I"Trombi in F	*	*I"4 Corni in F	*	*I"4 Corni in F	*	*I"Fag	*	*I"Cl in B.	*	*I"Oboi	*	*I"Fl 2o	*	*I"Fl. 1o	*
*I'	*	*I'	*	*I'	*	*I'	*	*I'	*	*	*	*	*	*I'	*	*I'	*	*I'	*	*I'	*	*I'	*	*I'	*	*I'	*	*I'	*	*I'	*	*I'	*
*clefF4	*	*clefF4	*	*clefC3	*	*clefG2	*	*clefG2	*	*clefG2	*	*	*	*clefF4	*	*clefF4	*	*clefG2	*	*clefG2	*	*clefG2	*	*clefF4	*	*clefG2	*	*clefG2	*	*clefG2	*	*clefG2	*
*ITrd0c0	*	*	*	*	*	*	*	*	*	*	*	*	*	*	*	*	*	*ITrd-3c-5	*	*ITrd4c7	*	*ITrd4c7	*	*	*	*ITrd1c2	*	*	*	*	*	*	*
*k[f#]	*	*k[f#]	*	*k[f#]	*	*k[f#]	*	*k[f#]	*	*k[f#]	*	*	*	*k[]	*	*k[]	*	*k[b-]	*	*k[b-]	*	*k[b-]	*	*k[f#]	*	*k[f#]	*	*k[f#]	*	*k[f#]	*	*k[f#]	*
*e:	*	*e:	*	*e:	*	*e:	*	*e:	*	*e:	*	*	*	*e:	*	*e:	*	*e:	*	*e:	*	*e:	*	*e:	*	*e:	*	*e:	*	*e:	*	*e:	*
*M6/8	*	*M6/8	*	*M6/8	*	*M6/8	*	*M6/8	*	*M6/8	*	*	*	*M6/8	*	*M6/8	*	*M6/8	*	*M6/8	*	*M6/8	*	*M6/8	*	*M6/8	*	*M6/8	*	*M6/8	*	*M6/8	*
=1	=1	=1	=1	=1	=1	=1	=1	=1	=1	=1	=1	=1	=1	=1	=1	=1	=1	=1	=1	=1	=1	=1	=1	=1	=1	=1	=1	=1	=1	=1	=1	=1	=1
*	*	*	*	*	*	*	*	*	*	*	*	*	*	*	*	*	*	*	*	*	*	*	*	*^	*	*	*	*^	*	*	*	*	*
!	!	!	!	!	!LO:DY:rj	!	!LO:DY:rj	!LO:TX:B:a:t=Andantino.	!	!	!	!	!	!	!	!	!	!	!	!	!	!	!	!	!	!	!	!	!	!	!	!	!	!LO:TX:B:a:t=Andantino	!
8.E\Lyy	.	8.E\L	.	4.G/	p	4B/	p	4.e/	p	2.r	.	.	.	4r	.	2.ryy	.	2.ryy	.	4r	.	4r	.	4r	2.r	.	2.r	.	4rcc	4rd	.	2.r	.	2.r	.
16D\Kyy	.	16D\K	.	.	.	.	.	.	.	.	.	.	.	.	.	.	.	.	.	.	.	.	.	.	.	.	.	.	.	.	.	.	.	.	.
!	!	!	!	!	!	!	!	!	!	!	!	!	!	!	!	!	!	!	!	!	!	!	!	!LO:TX:a:t=1o	!	!	!	!	!LO:TX:a:t=Solo	!	!	!	!	!	!
!	!	!	!	!	!	!	!	!	!	!	!	!	!	!	!	!	!	!	!	!	!	!	!	!	!	!	!	!	!	!	!LO:DY:rj	!	!	!	!
8C\Jyy	.	8C\J	.	.	.	8r	.	.	.	.	.	.	.	8r	.	.	.	.	.	8r	.	8r	.	8r	.	.	.	.	(8e/	8rA	p <	.	.	.	.
*	*	*	*	*	*	*	*	*	*	*	*	*	*	*tremolo	*	*	*	*	*	*	*	*	*	*	*	*	*	*	*	*	*	*	*	*	*
!	!	!	!	!	!	!	!	!	!	!	!	!	!	!	!LO:DY:rj	!	!	!	!	!LO:TX:b:t=4o	!	!	!	!	!	!LO:DY:rj	!	!	!	!	!	!	!	!	!
4.BB^^</yy	.	4.BB^^</	.	(4.A/	.	(4.A/	.	(4.d#X/	.	.	.	.	.	32BB/LLL	pp <	.	.	.	.	8r	.	8r	.	(4.A/	.	p <	.	.	4b/	(4.d#X\	.	.	.	.	.
.	.	.	.	.	.	.	.	.	.	.	.	.	.	32BB/	.	.	.	.	.	.	.	.	.	.	.	.	.	.	.	.	.	.	.	.	.
.	.	.	.	.	.	.	.	.	.	.	.	.	.	32BB/	.	.	.	.	.	.	.	.	.	.	.	.	.	.	.	.	[	.	.	.	.
.	.	.	.	.	.	.	.	.	.	.	.	.	.	32BB/	.	.	.	.	.	.	.	.	.	.	.	.	.	.	.	.	.	.	.	.	.
!	!	!	!	!	!	!	!	!	!	!	!	!	!	!	!	!	!	!	!	!LO:TX:a:t=2o	!LO:DY:rj	!LO:TX:a:t=2o	!LO:DY:rj	!	!	!	!	!	!	!	!	!	!	!	!
.	.	.	.	.	.	.	.	.	.	.	.	.	.	32BB/	.	.	.	.	.	[4BBX/	p <	[4BX\	p <	.	.	.	.	.	.	.	>	.	.	.	.
.	.	.	.	.	.	.	.	.	.	.	.	.	.	32BB/	.	.	.	.	.	.	.	.	.	.	.	.	.	.	.	.	.	.	.	.	.
.	.	.	.	.	.	.	.	.	.	.	.	.	.	32BB/	.	.	.	.	.	.	.	.	.	.	.	.	.	.	.	.	.	.	.	.	.
.	.	.	.	.	.	.	.	.	.	.	.	.	.	32BB/JJJ	.	.	.	.	.	.	.	.	.	.	.	.	.	.	.	.	.	.	.	.	.
*	*	*	*	*	*	*	*	*	*	*	*	*	*	*Xtremolo	*	*	*	*	*	*	*	*	*	*	*	*	*	*	*	*	*	*	*	*	*
.	.	.	.	.	.	.	.	.	.	.	.	.	.	8BB/	[	.	.	.	.	.	[	.	[[	.	.	[	.	.	8g/	.	.	.	.	.	.
=2	=2	=2	=2	=2	=2	=2	=2	=2	=2	=2	=2	=2	=2	=2	=2	=2	=2	=2	=2	=2	=2	=2	=2	=2	=2	=2	=2	=2	=2	=2	=2	=2	=2	=2	=2
8.E\Lyy	pyy	8.E\L	p	4.G/)	.	4B/)	.	4.e/)	.	4r	.	.	.	4r	.	2.ryy	.	2.ryy	.	4BB/]	>	4B\]	>	4G/)	4r	>	4r	.	4e/)	4e\)	]	4r	.	4r	.
16D'\Kyy	.	16D'\K	.	.	.	.	.	.	.	.	.	.	.	.	.	.	.	.	.	.	]	.	]	.	.	.	.	.	.	.	.	.	.	.	.
!	!	!	!	!	!	!	!	!	!	!	!	!	!	!	!	!	!	!	!	!	!	!	!	!	!	!	!	!	!	!	!LO:HP:t=cre - scendo.	!	!LO:DY:rj	!	!LO:DY:rj
8C'\Jyy	.	8C'\J	.	.	.	8r	.	.	.	8r	.	.	.	8r	.	.	.	.	.	8r	.	8r	.	8rG	8rGG	]	8r	.	(8e/	8r	<	(8ee\	p <	(8ee\	p <
*	*	*	*	*	*	*	*	*	*	*	*	*	*	*tremolo	*	*	*	*	*	*	*	*	*	*	*	*	*	*	*	*	*	*	*	*	*
!	!	!	!	!	!	!	!	!	!	!	!	!	!	!	!LO:DY:rj	!	!	!	!	!	!	!	!	!LO:N:vis=4.	!	!LO:DY:rj	!	!LO:DY:rj	!	!	!	!	!	!	!
4.BB^^</yy	.	4.BB^^</	.	(4.A/	.	4.A/	.	(4.d#X/	.	4r	.	.	.	32BB/LLL	pp <	.	.	.	.	8r	.	8r	.	(4.A/	(4.BB\	p <	(4.d#X (4.A/	p <	4b/	(4.d#X\	.	4.dd#X\	]	4bb\	.
.	.	.	.	.	.	.	.	.	.	.	.	.	.	32BB/	.	.	.	.	.	.	.	.	.	.	.	.	.	.	.	.	.	.	.	.	.
.	.	.	.	.	.	.	.	.	.	.	.	.	.	32BB/	.	.	.	.	.	.	.	.	.	.	.	.	.	.	.	.	.	.	[	.	[
.	.	.	.	.	.	.	.	.	.	.	.	.	.	32BB/	.	.	.	.	.	.	.	.	.	.	.	.	.	.	.	.	.	.	.	.	.
!	!	!	!	!	!	!	!	!	!	!	!	!	!	!	!	!	!	!	!	!	!	!	!LO:DY:rj	!	!	!	!	!	!	!	!	!	!	!	!
.	.	.	.	.	.	.	.	.	.	.	.	.	.	32BB/	.	.	.	.	.	[4BBX/	<	[4BX\	p <	.	.	.	.	.	.	.	.	.	.	.	.
.	.	.	.	.	.	.	.	.	.	.	.	.	.	32BB/	.	.	.	.	.	.	.	.	.	.	.	.	.	.	.	.	.	.	.	.	.
.	.	.	.	.	.	.	.	.	.	.	.	.	.	32BB/	.	.	.	.	.	.	.	.	.	.	.	.	.	[	.	.	.	.	.	.	.
.	.	.	.	.	.	.	.	.	.	.	.	.	.	32BB/JJJ	.	.	.	.	.	.	.	.	.	.	.	.	.	>	.	.	.	.	.	.	.
*	*	*	*	*	*	*	*	*	*	*	*	*	*	*Xtremolo	*	*	*	*	*	*	*	*	*	*	*	*	*	*	*	*	*	*	*	*	*
!	!	!	!	!	!	!	!	!	!	!	!	!	!LO:DY:b	!	!	!	!	!	!	!	!	!	!	!	!	!	!	!	!	!	!	!	!	!	!
.	.	.	.	.	.	.	.	.	.	8g/	Był	Es	p	8BB/	[	.	.	.	.	.	[>	.	[>	.	.	[	.	.	8g/	.	.	.	>	8gg\	>
=3	=3	=3	=3	=3	=3	=3	=3	=3	=3	=3	=3	=3	=3	=3	=3	=3	=3	=3	=3	=3	=3	=3	=3	=3	=3	=3	=3	=3	=3	=3	=3	=3	=3	=3	=3
[2.E\yy	ppyy	[2.E\	pp	4G/)	.	4B/	.	4e/)	.	4e/	so-	war	.	2.ryy	.	2.ryy	.	2.ryy	.	8BB/]	]	8B\]	]	8G/)	8E\)	>	8e 8G/))	]	8e/)	8e\)	.	8ee\)	]]	8ee\)	]]
.	.	.	.	.	.	.	.	.	.	.	.	.	.	.	.	.	.	.	.	8r	]	8r	.	8r	8ryy	]	8r	.	8r	8ryy	.	8r	.	8r	.
!	!	!	!	!	!	!	!LO:DY:rj	!	!	!	!	!	!	!	!	!	!	!	!	!	!	!	!	!	!	!	!	!	!	!	!	!	!	!	!
.	.	.	.	(8A/	pp	(8c/	pp	(8f#/	pp	8f#/	-bie	ein	.	.	.	.	.	.	.	8r	.	8r	.	8r	8ryy	.	8r	.	8r	8ryy	.	8r	.	8r	.
.	.	.	.	4G/	.	4B/)	.	4e/	.	4e/	raz	al-	.	.	.	.	.	.	.	4r	.	4r	.	4r	4ryy	.	4r	.	4r	4ryy	.	4r	.	4r	.
.	.	.	.	8F#/	.	8B/	.	8d#X/	.	8d#X/	Król	-ter	.	.	.	.	.	.	.	8r	.	8r	.	8r	8ryy	.	8r	.	8r	8ryy	.	8r	.	8r	.
*	*	*	*	*	*	*	*	*	*	*	*	*	*	*	*	*	*	*	*	*	*	*	*	*v	*v	*	*	*	*v	*v	*	*	*	*	*
=4	=4	=4	=4	=4	=4	=4	=4	=4	=4	=4	=4	=4	=4	=4	=4	=4	=4	=4	=4	=4	=4	=4	=4	=4	=4	=4	=4	=4	=4	=4	=4	=4	=4
4.E\]yy	.	4.E\]	.	4.G/)	.	(4.B/	.	4.e/	.	4.e/	sta-	Kö-	.	2.ryy	.	2.ryy	.	2.ryy	.	2.ryy	.	2.ryy	.	2.ryy	.	2.ryy	.	2.ryy	.	2.ryy	.	2.ryy	.
[4.E\yy	.	[4.E\	.	4.G/	.	4c/	.	4c/	.	4c/	-ry	-nig,	.	.	.	.	.	.	.	.	.	.	.	.	.	.	.	.	.	.	.	.	.
.	.	.	.	.	.	8dn/)	.	8dn/)	.	8dn/	i	sein	.	.	.	.	.	.	.	.	.	.	.	.	.	.	.	.	.	.	.	.	.
!!pagebreak:original
=5	=5	=5	=5	=5	=5	=5	=5	=5	=5	=5	=5	=5	=5	=5	=5	=5	=5	=5	=5	=5	=5	=5	=5	=5	=5	=5	=5	=5	=5	=5	=5	=5	=5
*	*	*	*	*	*	*	*	*	*	*	*	*	*	*	*	*	*	*	*	*	*	*^	*	*^	*	*	*	*^	*	*	*	*	*
8.E\L]yy	.	8.E\L]	.	4.G/	.	4B/	.	4.e/	.	4e/	miał	Herz	.	4r	.	2.ryy	.	2.ryy	.	4r	.	4r	4ryy	.	4r	2.r	.	2.r	.	4r	4rc	.	2.ryy	.	2.ryy	.
16D'\Kyy	.	16D'\K	.	.	.	.	.	.	.	.	.	.	.	.	.	.	.	.	.	.	.	.	.	.	.	.	.	.	.	.	.	.	.	.	.	.
!	!	!	!	!	!	!	!	!	!	!	!	!	!	!	!	!	!	!	!	!	!	!	!	!	!	!	!LO:DY:a	!	!	!	!	!LO:DY:rj	!	!	!	!
8C'\Jyy	.	8C'\J	.	.	.	8r	.	.	.	8e/	si-	war	.	8r	.	.	.	.	.	8r	.	8r	8ryy	.	8r	.	.	.	.	(8e/	8r	p <	.	.	.	.
*	*	*	*	*	*	*	*	*	*	*	*	*	*	*tremolo	*	*	*	*	*	*	*	*	*	*	*	*	*	*	*	*	*	*	*	*	*	*
!	!	!	!	!	!	!	!	!	!	!	!	!	!	!	!LO:DY:rj	!	!	!	!	!	!	!	!	!	!	!	!LO:DY:a:rj	!	!	!	!	!	!	!	!	!
4.BB/yy	.	4.BB/	.	(4.A/	.	(>4.A/	.	(4.d#X/	.	4b\	-wiut-	schwer,	.	32BB/LLL	pp <	.	.	.	.	8r	.	8r	8ryy	.	(4.A/	.	p<	.	.	4b/	(4.d#X\	[	.	.	.	.
.	.	.	.	.	.	.	.	.	.	.	.	.	.	32BB/	.	.	.	.	.	.	.	.	.	.	.	.	.	.	.	.	.	.	.	.	.	.
.	.	.	.	.	.	.	.	.	.	.	.	.	.	32BB/	.	.	.	.	.	.	.	.	.	.	.	.	.	.	.	.	.	.	.	.	.	.
.	.	.	.	.	.	.	.	.	.	.	.	.	.	32BB/	.	.	.	.	.	.	.	.	.	.	.	.	.	.	.	.	.	.	.	.	.	.
!	!	!	!	!	!	!	!	!	!	!	!	!	!	!	!	!	!	!	!	!	!LO:DY:rj	!	!	!LO:DY:rj	!	!	!	!	!	!	!	!	!	!	!	!
.	.	.	.	.	.	.	.	.	.	.	.	.	.	32BB/	.	.	.	.	.	[4BBX/	p <[	[4BX/	[4B\	p <	.	.	.	.	.	.	.	.	.	.	.	.
.	.	.	.	.	.	.	.	.	.	.	.	.	.	32BB/	.	.	.	.	.	.	.	.	.	.	.	.	.	.	.	.	.	.	.	.	.	.
.	.	.	.	.	.	.	.	.	.	.	.	.	.	32BB/	.	.	.	.	.	.	.	.	.	.	.	.	.	.	.	.	.	.	.	.	.	.
.	.	.	.	.	.	.	.	.	.	.	.	.	.	32BB/JJJ	.	.	.	.	.	.	.	.	.	.	.	.	.	.	.	.	.	.	.	.	.	.
*	*	*	*	*	*	*	*	*	*	*	*	*	*	*Xtremolo	*	*	*	*	*	*	*	*	*	*	*	*	*	*	*	*	*	*	*	*	*	*
.	.	.	.	.	.	.	.	.	.	8g/	-ką	sein	.	8BB/	[	.	.	.	.	.	.	.	.	[[	.	.	[>	.	.	8g/	.	>	.	.	.	.
=6	=6	=6	=6	=6	=6	=6	=6	=6	=6	=6	=6	=6	=6	=6	=6	=6	=6	=6	=6	=6	=6	=6	=6	=6	=6	=6	=6	=6	=6	=6	=6	=6	=6	=6	=6	=6
8.E\Lyy	.	8.E\L	.	4.G/)	.	4B/)	.	4.e/)	.	4e/	gło-	Kopf	.	4r	.	2.ryy	.	2.ryy	.	4BB/]	>	4B/]	4B\]	>	4G/)	4r	]	4r	.	4e/)	8e\)	]	4r	.	4r	.
.	.	.	.	.	.	.	.	.	.	.	.	.	.	.	.	.	.	.	.	.	.	.	.	.	.	.	.	.	.	.	8r	.	.	.	.	.
16D'\Kyy	.	16D'\K	.	.	.	.	.	.	.	.	.	.	.	.	.	.	.	.	.	.	.	.	.	.	.	.	.	.	.	.	.	.	.	.	.	.
8C'\Jyy	.	8C'\J	.	.	.	8r	.	.	.	8e/	-wę	war	.	8r	.	.	.	.	.	8r	]	8r	8ryy	]	8rG	8rGG	.	8r	.	(8e/	8r	<	(>8e/	p <	(>8e/	p <
*	*	*	*	*	*	*	*	*	*	*	*	*	*	*tremolo	*	*	*	*	*	*	*	*	*	*	*	*	*	*	*	*	*	*	*	*	*	*
!	!	!	!	!	!	!	!	!	!	!	!	!	!	!	!LO:DY:rj	!	!	!	!	!	!	!	!	!	!	!	!LO:DY:rj	!	!LO:DY:rj	!	!	!	!	!	!	!
4.BB/yy	.	4.BB/	.	(4.A/	.	(4.A/	.	(4.d#X/	.	4b\	bie-	grau,	.	32BB/LLL	pp <	.	.	.	.	8r	.	8r	8ryy	.	(4.B\	(4.BB\	p	(4.d#X (4.A/	p	4b/	(4.d#X\	[	4b/	[	4b/	[
.	.	.	.	.	.	.	.	.	.	.	.	.	.	32BB/	.	.	.	.	.	.	.	.	.	.	.	.	.	.	.	.	.	.	.	.	.	.
.	.	.	.	.	.	.	.	.	.	.	.	.	.	32BB/	.	.	.	.	.	.	.	.	.	.	.	.	.	.	.	.	.	.	.	.	.	.
.	.	.	.	.	.	.	.	.	.	.	.	.	.	32BB/	.	.	.	.	.	.	.	.	.	.	.	.	.	.	.	.	.	.	.	.	.	.
.	.	.	.	.	.	.	.	.	.	.	.	.	.	32BB/	.	.	.	.	.	[4BBX/	<[	[<4BX/	4B\	<	.	.	.	.	.	.	.	.	.	.	.	.
.	.	.	.	.	.	.	.	.	.	.	.	.	.	32BB/	.	.	.	.	.	.	.	.	.	.	.	.	.	.	.	.	.	.	.	.	.	.
.	.	.	.	.	.	.	.	.	.	.	.	.	.	32BB/	.	.	.	.	.	.	.	.	.	.	.	.	.	.	.	.	.	.	.	.	.	.
.	.	.	.	.	.	.	.	.	.	.	.	.	.	32BB/JJJ	.	.	.	.	.	.	.	.	.	.	.	.	.	.	.	.	.	.	.	.	.	.
*	*	*	*	*	*	*	*	*	*	*	*	*	*	*Xtremolo	*	*	*	*	*	*	*	*	*	*	*	*	*	*	*	*	*	*	*	*	*	*
.	.	.	.	.	.	.	.	.	.	8g/	-dny	der	.	8BB/	[	.	.	.	.	.	.	.	.	[[	.	.	.	.	.	8g/	.	>	8g/	>	8g/	>
*	*	*	*	*	*	*	*	*	*	*	*	*	*	*	*	*	*	*	*	*	*	*v	*v	*	*	*	*	*	*	*	*	*	*	*	*	*
=7	=7	=7	=7	=7	=7	=7	=7	=7	=7	=7	=7	=7	=7	=7	=7	=7	=7	=7	=7	=7	=7	=7	=7	=7	=7	=7	=7	=7	=7	=7	=7	=7	=7	=7	=7
[2.E\	.	[2.E\	.	4G/)	.	4B/)	.	4e/)	.	4e/	bie-	ar-	.	2.ryy	.	2.ryy	.	2.ryy	.	8BB/]	>	8B/]	>	8G/)	8E\)	.	8e 8G/))	.	8e/)	8e\)	]	8e/)	]	8e/)	]
.	.	.	.	.	.	.	.	.	.	.	.	.	.	.	.	.	.	.	.	8r	]	8r	]	8r	8ryy	.	8r	.	8r	8ryy	.	8r	.	8r	.
.	.	.	.	(8A/	.	(8c/	.	(8f#/	.	8f#/	-dny	-me	.	.	.	.	.	.	.	8r	.	8r	.	8r	8ryy	.	8r	.	8r	8ryy	.	8r	.	8r	.
.	.	.	.	4G/	.	4B/)	.	4e/	.	4e/	był	al-	.	.	.	.	.	.	.	4r	.	4r	.	4r	4ryy	.	4r	.	4r	4ryy	.	4r	.	4r	.
.	.	.	.	8F#/	.	8B/	.	8d#X/	.	8d#X/	Król	-te	.	.	.	.	.	.	.	8r	.	8r	.	8r	8ryy	.	8r	.	8r	8ryy	.	8r	.	8r	.
*	*	*	*	*	*	*	*	*	*	*	*	*	*	*	*	*	*	*	*	*	*	*	*	*v	*v	*	*	*	*	*	*	*	*	*	*
=8	=8	=8	=8	=8	=8	=8	=8	=8	=8	=8	=8	=8	=8	=8	=8	=8	=8	=8	=8	=8	=8	=8	=8	=8	=8	=8	=8	=8	=8	=8	=8	=8	=8	=8
4E\]	.	4E\]	.	4G/	.	(4B/	<	4e/	<	(4e/	sta-	Kö-	.	2.ryy	.	2.ryy	.	2.ryy	.	4r	.	4r	.	4r	.	2.ryy	.	4r	4rc	.	2.ryy	.	2.ryy	.
!	!	!	!	!	!	!	!	!	!	!	!	!	!	!	!	!	!	!	!	!	!	!	!	!	!	!	!	!	!	!LO:DY:rj	!	!	!	!
(8A\	.	(<8AA/	.	8A/)	<	[8c/)	.	[8fn/)	.	8fn/)	.	.	.	.	.	.	.	.	.	8r	.	8r	.	8r	.	.	.	(8fn/	8r	p <	.	.	.	.
!	!	!	!	!	!	!	!	!	!	!	!	!	!	!	!	!	!	!	!	!	!	!	!	!	!LO:DY:rj	!	!	!	!	!	!	!	!	!
4.D\)	.	4.D\)	.	4.Fn/	[[	4.c/]	[[	4.fn/]	[[	4f/	-ry	-nig	.	.	.	.	.	.	.	8r	.	8r	.	(4.c (4.D\	p	.	.	4cc/	(4.fn\	.	.	.	.	.
!	!	!	!	!	!	!	!	!	!	!	!	!	!	!	!	!	!	!	!	!	!	!	!LO:DY:rj	!	!	!	!	!	!	!	!	!	!	!
.	.	.	.	.	.	.	.	.	.	.	.	.	.	.	.	.	.	.	.	(4F/	.	(>4f/	p	.	.	.	.	.	.	.	.	.	.	.
.	.	.	.	.	.	.	.	.	.	8r	.	.	.	.	.	.	.	.	.	.	.	.	.	.	.	.	.	8a/	.	[[	.	.	.	.
!!pagebreak:original
=9	=9	=9	=9	=9	=9	=9	=9	=9	=9	=9	=9	=9	=9	=9	=9	=9	=9	=9	=9	=9	=9	=9	=9	=9	=9	=9	=9	=9	=9	=9	=9	=9	=9	=9
*	*	*	*	*	*	*	*	*	*	*	*	*	*	*	*	*	*	*	*	*	*	*	*	*^	*	*^	*	*	*	*	*	*	*	*
!	!	!	!	!	!	!	!	!	!	!	!	!	!	!	!	!	!	!	!	!	!	!	!	!	!	!	!	!	!	!	!LO:TX:t=P:problem:brak zakończenia łuku (początek pięciolinii)	!	!	!	!	!
4E\	.	4E\	<	4G/	<	4B/	<	(4e/	<	4r	.	.	.	2.ryy	.	2.ryy	.	2.ryy	.	8G/)	.	8e/)	.	8B 8E\))	4rBByy	.	4r	4ryy	.	4e/)	8e\)	.	4r	.	4r	.
.	.	.	.	.	.	.	.	.	.	.	.	.	.	.	.	.	.	.	.	8r	.	8r	.	8r	.	.	.	.	.	.	8r	.	.	.	.	.
!	!	!	!	!	!	!	!	!	!	!	!	!	!	!	!	!	!	!	!	!	!	!	!	!	!	!	!	!	!	!	!	!	!	!	!	!LO:DY:rj
(8A\	.	(<8AA/	.	8A/	.	[8c/	.	[8fn/)	.	8r	.	.	.	.	.	.	.	.	.	8r	.	8r	.	8r	8ryy	.	8r	8ryy	.	(8fn/	8r	<	8r	.	(>8fn/	p <
!	!	!	!	!	!	!	!	!	!	!	!	!	!	!	!	!	!	!	!	!	!	!	!	!	!	!	!	!	!LO:DY:rj	!	!	!	!	!	!	!
4.D\)	.	4.D\)	[	4.Fn/	[	4.c/]	[	4.f/]	[	4r	.	.	.	.	.	.	.	.	.	8r	.	8r	.	(4.D/	(4.DD\	p	(4.c/	(4.F\	p<	4cc/	(4.fn\	.	(4.fn/	<	4cc/	.
.	.	.	.	.	.	.	.	.	.	.	.	.	.	.	.	.	.	.	.	(4F/	.	(>4f/	.	.	.	.	.	.	.	.	.	.	.	.	.	[
.	.	.	.	.	.	.	.	.	.	8fn/	bo	er	.	.	.	.	.	.	.	.	.	.	.	.	.	.	.	.	[>	8a/	.	[[	.	[	8a/	>
=10	=10	=10	=10	=10	=10	=10	=10	=10	=10	=10	=10	=10	=10	=10	=10	=10	=10	=10	=10	=10	=10	=10	=10	=10	=10	=10	=10	=10	=10	=10	=10	=10	=10	=10	=10	=10
*	*	*	*	*	*	*	*	*	*	*	*	*	*	*	*	*	*	*	*	*^	*	*^	*	*	*	*	*	*	*	*	*	*	*	*	*	*
!	!	!	!	!	!	!	!	!	!	!	!	!	!	!LO:TX:b:t=Timpani	!	!	!	!	!	!	!	!	!	!	!	!	!	!	!	!	!	!	!	!	!	!	!	!
4.B\	.	4.BB/	.	4.G/	.	4.g 4.B/	.	4.e/	.	8e/L	mło-	nahm	.	4r	.	2.ryy	.	2.ryy	.	4ree	8G/)	.	8e/)	4rc	.	8BB/)	8BB\)	.	8B/)	8G\)	.	8g/)	8e\)	>	8e/)	>	8g/)	.
.	.	.	.	.	.	.	.	.	.	8f#X/J	.	.	.	.	.	.	.	.	.	.	8r	.	8r	.	.	8r	8ryy	.	8r	8ryy	]	8r	8ryy	]	8r	]	8r	]
.	.	.	.	.	.	.	.	.	.	8g/	-dą	eine	.	8r	.	.	.	.	.	8ree	8rc	.	8r	8rc	.	8r	8ryy	.	8r	8ryy	.	8r	8ryy	.	8r	.	8r	.
!	!	!	!	!	!	!	!	!	!	!	!	!	!	!	!	!	!	!	!	!	!	!LO:DY:rj	!	!	!LO:DY:rj	!	!	!LO:DY:rj	!	!	!	!	!	!	!	!	!	!
4.BB/	.	4.BB/	.	4.G/	.	4.g 4.B/	.	4.b 4.d#X/	.	4b\	wziął	jun-	.	8BB/	pp	.	.	.	.	4.d#X/	4.G\	pp <	4.g/	4.BX\	pp <	4.BB/	4.BB\	pp <	4r	4ryy	.	4r	4ryy	.	4r	.	4r	.
.	.	.	.	.	.	.	.	.	.	.	.	.	.	8r	.	.	.	.	.	.	.	.	.	.	.	.	.	.	.	.	.	.	.	.	.	.	.	.
.	.	.	.	.	.	.	.	.	.	8g/	kró-	-ge	.	8r	.	.	.	.	.	.	.	.	.	.	.	.	.	.	8r	8ryy	.	8r	8ryy	.	8r	.	8r	.
*	*	*	*	*	*	*	*	*	*	*	*	*	*	*	*	*	*	*	*	*	*	*	*	*	*	*	*	*	*v	*v	*	*	*	*	*	*	*	*
*	*	*	*	*	*	*	*	*	*	*	*	*	*	*	*	*	*	*	*	*	*	*	*	*	*	*	*	*	*	*	*v	*v	*	*	*	*	*
=11	=11	=11	=11	=11	=11	=11	=11	=11	=11	=11	=11	=11	=11	=11	=11	=11	=11	=11	=11	=11	=11	=11	=11	=11	=11	=11	=11	=11	=11	=11	=11	=11	=11	=11	=11	=11
*	*	*	*	*	*	*	*	*^	*	*	*	*	*	*	*	*	*	*	*	*	*	*	*	*	*	*	*	*	*	*	*	*	*	*	*	*
4E\	.	4E\	.	4G#X/	.	4g#X 4B/	.	8e/L	8b\	.	8e/	-lo-	Frau.	.	8E\	.	2.ryy	.	2.ryy	.	[4.e/	[4.G#X\	.	[4.g#X/	[4.BX\	.	[4.E/	[4.EE\	.	2.ryy	.	2.ryy	.	2.ryy	.	2.ryy	.
.	.	.	.	.	.	.	.	(<8e/	8ryy	<	8e/	-wą.	.	.	8r	.	.	.	.	.	.	.	.	.	.	.	.	.	.	.	.	.	.	.	.	.	.
8r	.	8r	.	8r	.	8r	.	8g#X/J	8ryy	.	8r	.	.	.	8r	.	.	.	.	.	.	.	[>	.	.	[ >	.	.	[>	.	.	.	.	.	.	.	.
4r	.	4r	.	4r	.	4r	.	8b\L	4ryy	.	4r	.	.	.	4r	.	.	.	.	.	8e/]	8G#\]	.	8g#/]	8B\]	.	8E/]	8EE\]	.	.	.	.	.	.	.	.	.
.	.	.	.	.	.	.	.	8ee\	.	.	.	.	.	.	.	.	.	.	.	.	8r	8rc	]	8r	8r	]	8r	8ryy	]	.	.	.	.	.	.	.	.
8r	.	8r	.	8r	.	8r	.	8gg#X\J	8ryy	.	8e/	Był	Es	.	8r	.	.	.	.	.	8r	8rc	.	8r	8r	.	8r	8ryy	.	.	.	.	.	.	.	.	.
*	*	*	*	*	*	*	*	*v	*v	*	*	*	*	*	*	*	*	*	*	*	*	*	*	*	*	*	*v	*v	*	*	*	*	*	*	*	*	*
=12	=12	=12	=12	=12	=12	=12	=12	=12	=12	=12	=12	=12	=12	=12	=12	=12	=12	=12	=12	=12	=12	=12	=12	=12	=12	=12	=12	=12	=12	=12	=12	=12	=12	=12	=12
*	*	*	*	*	*	*	*	*	*	*	*	*	*	*	*	*	*	*	*	*	*	*	*	*	*	*	*	*^	*	*	*	*	*	*	*
!	!	!	!LO:DY:rj	!LO:TX:t=P:problem:poprawki ołówkiem	!LO:DY:rj	!	!LO:DY:rj	!	!	!	!	!	!	!	!	!	!	!	!	!	!	!	!	!	!	!	!	!LO:TX:t=P:problem:poprawki ołówkiem	!	!	!	!	!LO:TX:t=P:problem:poprawki ołówkiem	!	!	!
2.r	.	8B\	pp	8b\	pp	8ff# 8dd#X\	pp	8bb\)	[	4b\	so-	war	.	2.ryy	.	2.ryy	.	2.ryy	.	2.r	2.r	.	2.r	2.r	.	2.r	.	(4.b\	[2.B/	pp	(4.ff# (4.dd#X\	pp	(4.bb\	pp	(4.bb\	pp
!	!	!LO:TX:b:t=piz	!	!LO:TX:b:t=piz	!	!LO:TX:b:t=piz	!	!	!	!	!	!	!	!	!	!	!	!	!	!	!	!	!	!	!	!	!	!	!	!	!	!	!	!	!	!
.	.	8r	.	8r	.	8r	.	8r	.	.	.	.	.	.	.	.	.	.	.	.	.	.	.	.	.	.	.	.	.	.	.	.	.	.	.	.
.	.	8r	.	8r	.	8r	.	8r	.	8cc#X\	-bie	ein	.	.	.	.	.	.	.	.	.	.	.	.	.	.	.	.	.	.	.	.	.	.	.	.
!	!	!	!	!	!	!	!	!	!LO:DY:rj	!	!	!	!	!	!	!	!	!	!	!	!	!	!	!	!	!	!	!	!	!	!	!	!	!	!	!
.	.	8B\	.	8r	.	8gg 8ee\	.	8ccc#X\	pp	4b\	paź	schö-	.	.	.	.	.	.	.	.	.	.	.	.	.	.	.	4.a#X\)	.	.	4.gg 4.ee\))	.	4.ccc#X\	.	4.ccc#X\	.
!	!	!	!	!	!	!	!	!LO:TX:b:rj:t=piz	!	!	!	!	!	!	!	!	!	!	!	!	!	!	!	!	!	!	!	!	!	!	!	!	!	!	!	!
.	.	8r	.	8r	.	8r	.	8r	.	.	.	.	.	.	.	.	.	.	.	.	.	.	.	.	.	.	.	.	.	.	.	.	.	.	.	.
.	.	8r	.	8a#'\	.	8r	.	8r	.	8a#X\	prze	-ner	.	.	.	.	.	.	.	.	.	.	.	.	.	.	.	.	.	.	.	.	.	.	.	.
*	*	*	*	*	*	*	*	*	*	*	*	*	*	*	*	*	*	*	*	*v	*v	*	*	*	*	*	*	*	*	*	*	*	*	*	*	*
*	*	*	*	*	*	*	*	*	*	*	*	*	*	*	*	*	*	*	*	*	*	*v	*v	*	*	*	*	*	*	*	*	*	*	*	*
!!pagebreak:original
=13	=13	=13	=13	=13	=13	=13	=13	=13	=13	=13	=13	=13	=13	=13	=13	=13	=13	=13	=13	=13	=13	=13	=13	=13	=13	=13	=13	=13	=13	=13	=13	=13	=13	=13
*	*	*	*	*	*	*	*	*	*	*	*	*	*	*	*	*	*	*	*	*	*	*	*	*	*	*	*	*	*^	*	*	*	*	*
*	*	*	*	*	*	*	*	*	*	*	*above	*	*	*	*	*	*	*	*	*	*	*	*	*	*	*	*	*	*	*	*	*	*	*	*
!	!	!	!	!	!	!	!	!	!	!	!	!	!	!	!	!	!	!	!	!	!	!	!	!	!	!	!	!	!	!	!	!LO:TX:t=P:problem:poprawki ołówkiem	!	!	!
!	!	!LO:TX:t=P:problem:poprawki ołówkiem	!	!	!	!	!	!	!	!	!	!	!	!	!	!	!	!	!	!	!	!	!	!	!	!LO:TX:t=P:problem:poprawki ołówkiem	!	!	!LO:TX:t=P:problem:poprawki ołówkiem	!	!	!LO:TX:a:t=col 1o:zapisane ołówkiem	!	!	!
2.r	.	8B\	.	8b\	.	8ff# 8dd#X\	.	8bb\	.	4.b\	-śli-	Pa-	.	2.ryy	.	2.ryy	.	2.ryy	.	2.ryy	.	2.ryy	.	2.ryy	.	(4b\	4.B\_	.	(4ff#/	(4dd#X\	.	4bb\yy	<	4bb\	<
.	.	8r	.	8r	.	8r	.	8r	.	.	.	.	.	.	.	.	.	.	.	.	.	.	.	.	.	.	.	.	.	.	.	.	.	.	.
.	.	8r	.	8a#X\	.	8gg 8ee\	.	8ccc#X\	.	.	.	.	.	.	.	.	.	.	.	.	.	.	.	.	.	8a#X\	.	.	8gg/	8ee\	.	8ccc#X\yy	[	8ccc#X\	[
.	.	4r	.	8b\	.	8ff# 8dd#\	.	8bb\	.	4.f#/	-czny	-ge,	.	.	.	.	.	.	.	.	.	.	.	.	.	4b\	4B\]	.	4ff#/	4dd#\	.	4bb\yy	>	4bb\	>
.	.	.	.	8r	.	8r	.	8r	.	.	.	.	.	.	.	.	.	.	.	.	.	.	.	.	.	.	.	.	.	.	.	.	.	.	.
!	!	!	!	!	!	!	!	!	!	!	!	!	!	!	!	!	!	!	!	!	!	!	!	!	!	!	!	!	!	!LO:SIC:v:s=8cc#\	!	!	!	!	!
.	.	8f#\	.	8f#\	.	8ff# 8cc#X\	.	8aa#X\	.	.	.	.	.	.	.	.	.	.	.	.	.	.	.	.	.	8cc#X/)	8f#\	.	8ff#/)	8cc\)	.	8aa#X\)yy	]]	8aa#X\)	]]
*	*	*	*	*	*	*	*	*	*	*	*	*	*	*	*	*	*	*	*	*	*	*	*	*	*	*	*	*	*v	*v	*	*	*	*	*
=14	=14	=14	=14	=14	=14	=14	=14	=14	=14	=14	=14	=14	=14	=14	=14	=14	=14	=14	=14	=14	=14	=14	=14	=14	=14	=14	=14	=14	=14	=14	=14	=14	=14	=14
!	!	!	!	!	!	!	!	!	!	!	!	!	!	!	!	!	!	!	!	!	!	!LO:TX:b:rj:t=2o	!	!	!	!	!	!	!	!	!	!	!	!
!	!	!	!	!LO:TX:b:t=arco	!	!	!	!	!	!	!	!	!	!	!	!	!	!	!	!	!	!LO:TX:a:t=Solo	!	!	!	!LO:TX:t=P:problem:poprawki ołówkiem	!	!	!	!	!	!	!	!
2.r	.	8F#\	.	8r	.	8gg#X 8ee\	.	8ccc#X\	.	8g#X/	z_swo-	blond	.	2.ryy	.	2.ryy	.	2.ryy	.	2.ryy	.	[<2.F#X\	p <	2.ryy	.	4cc#X/ ee	4f#\	.	4gg#X 4ee\	.	4ee\	.	4ccc#X\	.
*	*	*	*	*	*	*tremolo	*	*tremolo	*	*	*	*	*	*	*	*	*	*	*	*	*	*	*	*	*	*	*	*	*	*	*	*	*	*
!	!	!	!	!	!	!	!LO:DY:rj	!	!LO:DY:rj	!	!	!	!	!	!	!	!	!	!	!	!	!	!	!	!	!	!	!	!	!	!	!	!	!
.	.	8r	.	16r	.	64gg#\LLLL	pp <	64ccc#LLLL 64ee\	pp <	8a#X/	-bod-	war	.	.	.	.	.	.	.	.	.	.	.	.	.	.	.	.	.	.	.	.	.	.
.	.	.	.	.	.	64gg#\	.	64ccc# 64ee\	.	.	.	.	.	.	.	.	.	.	.	.	.	.	.	.	.	.	.	.	.	.	.	.	.	.
.	.	.	.	.	.	64gg#\	.	64ccc# 64ee\	.	.	.	.	.	.	.	.	.	.	.	.	.	.	.	.	.	.	.	.	.	.	.	.	.	.
.	.	.	.	.	.	64gg#\	.	64ccc# 64ee\	.	.	.	.	.	.	.	.	.	.	.	.	.	.	.	.	.	.	.	.	.	.	.	.	.	.
!	!	!	!	!	!LO:DY:rj	!	!	!	!	!	!	!	!	!	!	!	!	!	!	!	!	!	!	!	!	!	!	!	!	!	!	!	!	!
.	.	.	.	(16c#X\LL	p <	64gg#\	.	64ccc# 64ee\	.	.	.	.	.	.	.	.	.	.	.	.	.	.	.	.	.	.	.	.	.	.	.	.	.	.
.	.	.	.	.	.	64gg#\	.	64ccc# 64ee\	.	.	.	.	.	.	.	.	.	.	.	.	.	.	.	.	.	.	.	.	.	.	.	.	.	.
.	.	.	.	.	.	64gg#\	.	64ccc# 64ee\	.	.	.	.	.	.	.	.	.	.	.	.	.	.	.	.	.	.	.	.	.	.	.	.	.	.
.	.	.	.	.	.	64gg#\	.	64ccc# 64ee\	.	.	.	.	.	.	.	.	.	.	.	.	.	.	.	.	.	.	.	.	.	.	.	.	.	.
.	.	8r	.	16e\	.	64gg#\	.	64ccc# 64ee\	.	8b\	-ną	sein	.	.	.	.	.	.	.	.	.	.	.	.	.	8r	8ryy	.	8r	.	8r	.	8r	.
.	.	.	.	.	.	64gg#\	.	64ccc# 64ee\	.	.	.	.	.	.	.	.	.	.	.	.	.	.	.	.	.	.	.	.	.	.	.	.	.	.
.	.	.	.	.	.	64gg#\	.	64ccc# 64ee\	.	.	.	.	.	.	.	.	.	.	.	.	.	.	.	.	.	.	.	.	.	.	.	.	.	.
.	.	.	.	.	.	64gg#\	.	64ccc# 64ee\	.	.	.	.	.	.	.	.	.	.	.	.	.	.	.	.	.	.	.	.	.	.	.	.	.	.
.	.	.	.	16g#X\JJ	.	64gg#\	.	64ccc# 64ee\	.	.	.	.	.	.	.	.	.	.	.	.	.	.	.	.	.	.	.	.	.	.	.	.	.	.
.	.	.	.	.	.	64gg#\	.	64ccc# 64ee\	.	.	.	.	.	.	.	.	.	.	.	.	.	.	.	.	.	.	.	.	.	.	.	.	.	.
.	.	.	.	.	.	64gg#\	.	64ccc# 64ee\	.	.	.	.	.	.	.	.	.	.	.	.	.	.	.	.	.	.	.	.	.	.	.	.	.	.
.	.	.	.	.	.	64gg#\JJJJ	.	64ccc#JJJJ 64ee\	.	.	.	.	.	.	.	.	.	.	.	.	.	.	.	.	.	.	.	.	.	.	.	.	.	.
.	.	4r	.	4.cc#X\)	.	64gg#\LLLL	.	64ccc#LLLL 64ee\	.	8cc#X\	gło-	Haupt	.	.	.	.	.	.	.	.	.	.	.	.	.	4r	4ryy	.	4r	.	4r	.	4r	.
.	.	.	.	.	[[	64gg#\	.	64ccc# 64ee\	.	.	.	.	.	.	.	.	.	.	.	.	.	.	.	.	.	.	.	.	.	.	.	.	.	.
.	.	.	.	.	.	64gg#\	.	64ccc# 64ee\	.	.	.	.	.	.	.	.	.	.	.	.	.	.	.	.	.	.	.	.	.	.	.	.	.	.
.	.	.	.	.	.	64gg#\	.	64ccc# 64ee\	.	.	.	.	.	.	.	.	.	.	.	.	.	.	.	.	.	.	.	.	.	.	.	.	.	.
.	.	.	.	.	.	64gg#\	.	64ccc# 64ee\	.	.	.	.	.	.	.	.	.	.	.	.	.	.	.	.	.	.	.	.	.	.	.	.	.	.
.	.	.	.	.	.	64gg#\	.	64ccc# 64ee\	.	.	.	.	.	.	.	.	.	.	.	.	.	.	.	.	.	.	.	.	.	.	.	.	.	.
.	.	.	.	.	.	64gg#\	.	64ccc# 64ee\	.	.	.	.	.	.	.	.	.	.	.	.	.	.	.	.	.	.	.	.	.	.	.	.	.	.
.	.	.	.	.	.	64gg#\	.	64ccc# 64ee\	.	.	.	.	.	.	.	.	.	.	.	.	.	.	[	.	.	.	.	.	.	.	.	.	.	.
.	.	.	.	.	.	64gg#\	.	64ccc# 64ee\	.	8cc#\	-wą	.	.	.	.	.	.	.	.	.	.	.	.	.	.	.	.	.	.	.	.	.	.	.
.	.	.	.	.	.	64gg#\	.	64ccc# 64ee\	.	.	.	.	.	.	.	.	.	.	.	.	.	.	.	.	.	.	.	.	.	.	.	.	.	.
.	.	.	.	.	.	64gg#\	.	64ccc# 64ee\	.	.	.	.	.	.	.	.	.	.	.	.	.	.	.	.	.	.	.	.	.	.	.	.	.	.
.	.	.	.	.	.	64gg#\	.	64ccc# 64ee\	.	.	.	.	.	.	.	.	.	.	.	.	.	.	.	.	.	.	.	.	.	.	.	.	.	.
.	.	.	.	.	.	64gg#\	.	64ccc# 64ee\	.	.	.	.	.	.	.	.	.	.	.	.	.	.	.	.	.	.	.	.	.	.	.	.	.	.
.	.	.	.	.	.	64gg#\	.	64ccc# 64ee\	.	.	.	.	.	.	.	.	.	.	.	.	.	.	.	.	.	.	.	.	.	.	.	.	.	.
.	.	.	.	.	.	64gg#\	.	64ccc# 64ee\	.	.	.	.	.	.	.	.	.	.	.	.	.	.	.	.	.	.	.	.	.	.	.	.	.	.
.	.	.	.	.	.	64gg#\	.	64ccc# 64ee\	.	.	.	.	.	.	.	.	.	.	.	.	.	.	.	.	.	.	.	.	.	.	.	.	.	.
.	.	8r	.	.	.	64gg#\	.	64ccc# 64ee\	.	8cc#\	ze	.	.	.	.	.	.	.	.	.	.	.	>	.	.	8r	8ryy	.	8r	.	8r	.	8r	.
.	.	.	.	.	.	64gg#\	.	64ccc# 64ee\	.	.	.	.	.	.	.	.	.	.	.	.	.	.	.	.	.	.	.	.	.	.	.	.	.	.
.	.	.	.	.	.	64gg#\	.	64ccc# 64ee\	.	.	.	.	.	.	.	.	.	.	.	.	.	.	.	.	.	.	.	.	.	.	.	.	.	.
.	.	.	.	.	.	64gg#\	.	64ccc# 64ee\	.	.	.	.	.	.	.	.	.	.	.	.	.	.	.	.	.	.	.	.	.	.	.	.	.	.
.	.	.	.	.	.	64gg#\	.	64ccc# 64ee\	.	.	.	.	.	.	.	.	.	.	.	.	.	.	.	.	.	.	.	.	.	.	.	.	.	.
.	.	.	.	.	.	64gg#\	.	64ccc# 64ee\	.	.	.	.	.	.	.	.	.	.	.	.	.	.	.	.	.	.	.	.	.	.	.	.	.	.
.	.	.	.	.	.	64gg#\	.	64ccc# 64ee\	.	.	.	.	.	.	.	.	.	.	.	.	.	.	.	.	.	.	.	.	.	.	.	.	.	.
.	.	.	.	.	.	64gg#\JJJJ	.	64ccc#JJJJ 64ee\	.	.	.	.	.	.	.	.	.	.	.	.	.	.	.	.	.	.	.	.	.	.	.	.	.	.
*	*	*	*	*	*	*	*	*	*	*	*	*	*	*	*	*	*	*	*	*	*	*	*	*	*	*v	*v	*	*	*	*	*	*	*
=15	=15	=15	=15	=15	=15	=15	=15	=15	=15	=15	=15	=15	=15	=15	=15	=15	=15	=15	=15	=15	=15	=15	=15	=15	=15	=15	=15	=15	=15	=15	=15	=15	=15
2.r	.	8F#\	.	8r	.	64aa#XLLLL 64ff#\	[	64ccc#XLLLL 64ee\	[	8dd#X\L	zło-	leicht	.	2.ryy	.	2.ryy	.	2.ryy	.	2.ryy	.	2.F#X\]	.	2.ryy	.	2.ryy	.	2.ryy	.	2.ryy	.	2.ryy	.
.	.	.	.	.	.	64aa# 64ff#\	.	64ccc# 64ee\	.	.	.	.	.	.	.	.	.	.	.	.	.	.	.	.	.	.	.	.	.	.	.	.	.
.	.	.	.	.	.	64aa# 64ff#\	.	64ccc# 64ee\	.	.	.	.	.	.	.	.	.	.	.	.	.	.	.	.	.	.	.	.	.	.	.	.	.
.	.	.	.	.	.	64aa# 64ff#\	.	64ccc# 64ee\	.	.	.	.	.	.	.	.	.	.	.	.	.	.	.	.	.	.	.	.	.	.	.	.	.
.	.	.	.	.	.	64aa# 64ff#\	.	64ccc# 64ee\	.	.	.	.	.	.	.	.	.	.	.	.	.	.	.	.	.	.	.	.	.	.	.	.	.
.	.	.	.	.	.	64aa# 64ff#\	.	64ccc# 64ee\	.	.	.	.	.	.	.	.	.	.	.	.	.	.	.	.	.	.	.	.	.	.	.	.	.
.	.	.	.	.	.	64aa# 64ff#\	.	64ccc# 64ee\	.	.	.	.	.	.	.	.	.	.	.	.	.	.	.	.	.	.	.	.	.	.	.	.	.
.	.	.	.	.	.	64aa# 64ff#\	.	64ccc# 64ee\	.	.	.	.	.	.	.	.	.	.	.	.	.	.	.	.	.	.	.	.	.	.	.	.	.
.	.	8r	.	16r	.	64aa# 64ff#\	>	64ccc# 64ee\	>	8cc#X\J	.	war	.	.	.	.	.	.	.	.	.	.	.	.	.	.	.	.	.	.	.	.	.
.	.	.	.	.	.	64aa# 64ff#\	.	64ccc# 64ee\	.	.	.	.	.	.	.	.	.	.	.	.	.	.	.	.	.	.	.	.	.	.	.	.	.
.	.	.	.	.	.	64aa# 64ff#\	.	64ccc# 64ee\	.	.	.	.	.	.	.	.	.	.	.	.	.	.	.	.	.	.	.	.	.	.	.	.	.
.	.	.	.	.	.	64aa# 64ff#\	.	64ccc# 64ee\	.	.	.	.	.	.	.	.	.	.	.	.	.	.	.	.	.	.	.	.	.	.	.	.	.
.	.	.	.	(16c#X\LL	<	64aa# 64ff#\	.	64ccc# 64ee\	.	.	.	.	.	.	.	.	.	.	.	.	.	.	.	.	.	.	.	.	.	.	.	.	.
.	.	.	.	.	.	64aa# 64ff#\	.	64ccc# 64ee\	.	.	.	.	.	.	.	.	.	.	.	.	.	.	.	.	.	.	.	.	.	.	.	.	.
.	.	.	.	.	.	64aa# 64ff#\	.	64ccc# 64ee\	.	.	.	.	.	.	.	.	.	.	.	.	.	.	.	.	.	.	.	.	.	.	.	.	.
.	.	.	.	.	.	64aa# 64ff#\	.	64ccc# 64ee\	.	.	.	.	.	.	.	.	.	.	.	.	.	.	.	.	.	.	.	.	.	.	.	.	.
.	.	8r	.	16e\	.	64aa# 64ff#\	.	64ccc# 64ee\	.	8a#X\	-tą	sein	.	.	.	.	.	.	.	.	.	.	.	.	.	.	.	.	.	.	.	.	.
.	.	.	.	.	.	64aa# 64ff#\	.	64ccc# 64ee\	.	.	.	.	.	.	.	.	.	.	.	.	.	.	.	.	.	.	.	.	.	.	.	.	.
.	.	.	.	.	.	64aa# 64ff#\	.	64ccc# 64ee\	.	.	.	.	.	.	.	.	.	.	.	.	.	.	.	.	.	.	.	.	.	.	.	.	.
.	.	.	.	.	.	64aa# 64ff#\	.	64ccc# 64ee\	.	.	.	.	.	.	.	.	.	.	.	.	.	.	.	.	.	.	.	.	.	.	.	.	.
.	.	.	.	16f#\JJ	.	64aa# 64ff#\	.	64ccc# 64ee\	.	.	.	.	.	.	.	.	.	.	.	.	.	.	]	.	.	.	.	.	.	.	.	.	.
.	.	.	.	.	.	64aa# 64ff#\	.	64ccc# 64ee\	.	.	.	.	.	.	.	.	.	.	.	.	.	.	.	.	.	.	.	.	.	.	.	.	.
.	.	.	.	.	.	64aa# 64ff#\	.	64ccc# 64ee\	.	.	.	.	.	.	.	.	.	.	.	.	.	.	.	.	.	.	.	.	.	.	.	.	.
.	.	.	.	.	.	64aa# 64ff#\	.	64ccc# 64ee\	.	.	.	.	.	.	.	.	.	.	.	.	.	.	.	.	.	.	.	.	.	.	.	.	.
.	.	4r	.	4.a#X\)	.	64aa# 64ff#\	.	64ccc# 64ee\	.	8g#X/	gło-	Sinn,	.	.	.	.	.	.	.	.	.	.	.	.	.	.	.	.	.	.	.	.	.
.	.	.	.	.	[[	64aa# 64ff#\	.	64ccc# 64ee\	.	.	.	.	.	.	.	.	.	.	.	.	.	.	.	.	.	.	.	.	.	.	.	.	.
.	.	.	.	.	.	64aa# 64ff#\	.	64ccc# 64ee\	.	.	.	.	.	.	.	.	.	.	.	.	.	.	.	.	.	.	.	.	.	.	.	.	.
.	.	.	.	.	.	64aa# 64ff#\	.	64ccc# 64ee\	.	.	.	.	.	.	.	.	.	.	.	.	.	.	.	.	.	.	.	.	.	.	.	.	.
.	.	.	.	.	.	64aa# 64ff#\	.	64ccc# 64ee\	.	.	.	.	.	.	.	.	.	.	.	.	.	.	.	.	.	.	.	.	.	.	.	.	.
.	.	.	.	.	.	64aa# 64ff#\	.	64ccc# 64ee\	.	.	.	.	.	.	.	.	.	.	.	.	.	.	.	.	.	.	.	.	.	.	.	.	.
.	.	.	.	.	.	64aa# 64ff#\	.	64ccc# 64ee\	.	.	.	.	.	.	.	.	.	.	.	.	.	.	.	.	.	.	.	.	.	.	.	.	.
.	.	.	.	.	.	64aa# 64ff#\	.	64ccc# 64ee\	.	.	.	.	.	.	.	.	.	.	.	.	.	.	.	.	.	.	.	.	.	.	.	.	.
.	.	.	.	.	.	64aa# 64ff#\	.	64ccc# 64ee\	.	8f#/	-wą	.	.	.	.	.	.	.	.	.	.	.	.	.	.	.	.	.	.	.	.	.	.
.	.	.	.	.	.	64aa# 64ff#\	.	64ccc# 64ee\	.	.	.	.	.	.	.	.	.	.	.	.	.	.	.	.	.	.	.	.	.	.	.	.	.
.	.	.	.	.	.	64aa# 64ff#\	.	64ccc# 64ee\	.	.	.	.	.	.	.	.	.	.	.	.	.	.	.	.	.	.	.	.	.	.	.	.	.
.	.	.	.	.	.	64aa# 64ff#\	.	64ccc# 64ee\	.	.	.	.	.	.	.	.	.	.	.	.	.	.	.	.	.	.	.	.	.	.	.	.	.
.	.	.	.	.	.	64aa# 64ff#\	.	64ccc# 64ee\	.	.	.	.	.	.	.	.	.	.	.	.	.	.	.	.	.	.	.	.	.	.	.	.	.
.	.	.	.	.	.	64aa# 64ff#\	.	64ccc# 64ee\	.	.	.	.	.	.	.	.	.	.	.	.	.	.	.	.	.	.	.	.	.	.	.	.	.
.	.	.	.	.	.	64aa# 64ff#\	.	64ccc# 64ee\	.	.	.	.	.	.	.	.	.	.	.	.	.	.	.	.	.	.	.	.	.	.	.	.	.
.	.	.	.	.	.	64aa# 64ff#\	.	64ccc# 64ee\	.	.	.	.	.	.	.	.	.	.	.	.	.	.	.	.	.	.	.	.	.	.	.	.	.
.	.	8r	.	.	.	64aa# 64ff#\	.	64ccc# 64ee\	.	8f#/	je-	er	.	.	.	.	.	.	.	.	.	.	.	.	.	.	.	.	.	.	.	.	.
.	.	.	.	.	.	64aa# 64ff#\	.	64ccc# 64ee\	.	.	.	.	.	.	.	.	.	.	.	.	.	.	.	.	.	.	.	.	.	.	.	.	.
.	.	.	.	.	.	64aa# 64ff#\	.	64ccc# 64ee\	.	.	.	.	.	.	.	.	.	.	.	.	.	.	.	.	.	.	.	.	.	.	.	.	.
.	.	.	.	.	.	64aa# 64ff#\	.	64ccc# 64ee\	.	.	.	.	.	.	.	.	.	.	.	.	.	.	.	.	.	.	.	.	.	.	.	.	.
.	.	.	.	.	.	64aa# 64ff#\	.	64ccc# 64ee\	.	.	.	.	.	.	.	.	.	.	.	.	.	.	.	.	.	.	.	.	.	.	.	.	.
.	.	.	.	.	.	64aa# 64ff#\	.	64ccc# 64ee\	.	.	.	.	.	.	.	.	.	.	.	.	.	.	.	.	.	.	.	.	.	.	.	.	.
.	.	.	.	.	.	64aa# 64ff#\	.	64ccc# 64ee\	.	.	.	.	.	.	.	.	.	.	.	.	.	.	.	.	.	.	.	.	.	.	.	.	.
.	.	.	.	.	.	64aa#JJJJ 64ff#\	.	64ccc#JJJJ 64ee\	.	.	.	.	.	.	.	.	.	.	.	.	.	.	.	.	.	.	.	.	.	.	.	.	.
*	*	*	*	*	*	*	*	*Xtremolo	*	*	*	*	*	*	*	*	*	*	*	*	*	*	*	*	*	*	*	*	*	*	*	*	*
=16	=16	=16	=16	=16	=16	=16	=16	=16	=16	=16	=16	=16	=16	=16	=16	=16	=16	=16	=16	=16	=16	=16	=16	=16	=16	=16	=16	=16	=16	=16	=16	=16	=16
*	*	*	*	*	*	*	*	*	*	*	*	*	*	*	*	*	*	*	*	*	*	*	*	*	*	*^	*	*^	*	*	*	*	*
!	!	!	!	!	!	!	!	!	!	!	!	!	!	!	!	!	!	!LO:TX:a:t=Solo	!	!	!	!	!	!LO:TX:b:t=a due	!	!	!	!	!	!	!	!	!	!	!
2.r	.	8B\	.	8b\	.	8bb 8dd#X\	]	8ff#\	]	4b\	-dwab-	trug	.	2.ryy	.	2.ryy	.	[2.ff#X [2.f#X/	pp < [[	2.ryy	.	2.ryy	.	(4B\	pp	4r	4ryy	.	(4b/	(4d#X\	pp	(4dd#X\	pp	(4bb\	pp
.	.	8r	.	8r	.	8r	.	8r	.	.	.	.	.	.	.	.	.	.	.	.	.	.	.	.	.	.	.	.	.	.	.	.	.	.	.
!	!	!	!	!	!	!LO:TX:b:t=piz	!LO:DY:rj	!LO:TX:b:t=piz	!LO:DY:rj	!	!	!	!	!	!	!	!	!	!	!	!	!	!	!	!	!	!	!	!	!	!	!	!	!	!
.	.	8A#X\	.	8f#\	.	8ff# 8cc#X\	p	8ccc#X 8ee\	p	8cc#X\	-ny	die	.	.	.	.	.	.	.	.	.	.	.	8A#X\	.	8r	8ryy	.	8cc#X/	8e\	.	8ee\	.	8ccc#X\	.
.	.	8B\	.	8f#\	.	8ff# 8b\	.	8bb 8dd#X\	.	4b\	no-	seid-	.	.	.	.	.	.	.	.	.	.	.	4B\	.	4r	4ryy	.	4b/	4d#\	.	4dd#\	.	4bb\	.
.	.	8r	.	8r	.	8r	.	8r	.	.	.	.	.	.	.	.	.	.	.	.	.	.	.	.	.	.	.	.	.	.	.	.	.	.	.
!	!	!	!	!	!	!	!	!LO:TX:a:t=ais\ne	!	!	!	!	!	!	!	!	!	!	!	!	!	!	!	!	!	!	!	!LO:DY:rj	!	!	!	!	!	!	!
.	.	8F#\	.	8f#\	.	8ff# 8cc#\	.	8aa#X 8ee\	.	8a#X\	-sił	-ne	.	.	.	.	.	.	.	.	.	.	.	8F#\)	.	8cc#X'</	8c#X\	pp	8a#X/)	8e\)	.	8ee\)	.	8aa#X\)	.
*	*	*	*	*	*	*	*	*	*	*	*	*	*	*	*	*	*	*	*	*	*	*	*	*	*	*v	*v	*	*	*	*	*	*	*	*
*	*	*	*	*	*	*	*	*	*	*	*	*	*	*	*	*	*	*	*	*	*	*	*	*	*	*	*	*v	*v	*	*	*	*	*
!!pagebreak:original
*	*	*	*	*	*	*	*	*	*	*	*below	*	*	*	*	*	*	*	*	*	*	*	*	*	*	*	*	*	*	*	*	*	*
=17	=17	=17	=17	=17	=17	=17	=17	=17	=17	=17	=17	=17	=17	=17	=17	=17	=17	=17	=17	=17	=17	=17	=17	=17	=17	=17	=17	=17	=17	=17	=17	=17	=17
*	*	*	*	*	*	*	*	*	*	*	*	*	*	*	*	*	*	*	*	*	*	*	*	*^	*	*	*	*	*	*	*	*	*
*	*	*	*	*	*	*	*	*	*	*	*	*above	*	*	*	*	*	*	*	*	*	*	*	*	*	*	*	*	*	*	*	*	*	*
2.r	.	8B\	.	8f# 8d#X\	.	8ff# 8b\	.	8bb 8dd#X\	.	4.b\	o-	Schlep-	.	2.ryy	.	2.r	.	2.ff#X] 2.f#X/]	<[	2.ryy	.	2.ryy	.	4.B/	4.B\	sf	4.ff# 4.B^>/	<	4.b 4.d#X^>/	<	4.dd#X^\	<	4.bb^\	<
.	.	8r	.	8r	.	8r	.	8r	.	.	.	.	.	.	.	.	.	.	.	.	.	.	.	.	.	.	.	.	.	.	.	.	.	.
.	.	8r	.	8r	.	8r	.	8r	.	.	.	.	.	.	.	.	.	.	.	.	.	.	.	.	.	.	.	.	.	.	.	.	.	.
.	.	8An\	.	8f# 8d#\	.	8ff# 8b\	.	8bb 8dd#\	.	4f#/	-gon,	-pe,	.	.	.	.	.	.	.	.	.	.	.	4.A/	4.An\	sf	4.ff# 4.B^>/	[[	4.b 4.d#^>/	[[	4.dd#^\	[[	4.bb^\	[[
.	.	8r	.	8r	.	8r	.	8r	.	.	.	.	.	.	.	.	.	.	.	.	.	.	.	.	.	.	.	.	.	.	.	.	.	.
.	.	8r	.	8r	.	8r	.	8r	.	8f#/	paź	der	.	.	.	.	.	.	.	.	.	.	.	.	.	.	.	.	.	.	.	.	.	.
=18	=18	=18	=18	=18	=18	=18	=18	=18	=18	=18	=18	=18	=18	=18	=18	=18	=18	=18	=18	=18	=18	=18	=18	=18	=18	=18	=18	=18	=18	=18	=18	=18	=18	=18
!	!	!	!LO:DY:rj	!	!	!	!	!	!	!	!	!	!	!	!	!	!	!	!	!	!	!	!	!	!	!	!	!	!	!	!	!	!	!LO:DY:a
4r	.	8G#X\	f	8g#X 8d#X\	f	8gg#X 8b\	f	8bb 8dd#X\	f	4b\	pię-	jun-	.	2.ryy	.	4r	.	4r	.	8r	.	8r	.	4.G#X/	4.G#\	sf	8.g#XL 8.B/	.	8.gg#XL 8.b\	sf <	8.dd#X\L	sf <	8.bb\L	sf <
.	.	8r	.	8r	.	8r	.	8r	.	.	.	.	.	.	.	.	.	.	.	16r	.	16r	.	.	.	.	.	.	.	.	.	.	.	.
!	!	!	!	!	!	!	!	!	!	!	!	!	!	!	!	!	!	!	!	!	!	!	!LO:DY:rj	!	!	!	!	!	!	!	!	!	!	!
.	.	.	.	.	.	.	.	.	.	.	.	.	.	.	.	.	.	.	.	16g#XKL 16BX\	<	16bXKL 16d#X/	p <	.	.	.	16g#K 16B/	.	16gg#K 16b\	.	16dd#\K	.	16bb\K	.
8r	.	8r	.	8r	.	8r	.	8r	.	8dd#X\	-kny	-gen	.	.	.	8r	.	8r	.	8g#J 8B\	.	8bJ 8d#/	.	.	.	.	8g#J 8B/	.	8gg#J 8b\	.	8dd#\J	.	8bb\J	.
*	*	*	*	*tremolo	*	*tremolo	*	*tremolo	*	*	*	*	*	*	*	*	*	*	*	*	*	*	*	*	*	*	*	*	*	*	*	*	*	*
!	!LO:DY:rj	!LO:TX:b:t=arco	!	!	!	!	!	!	!	!	!	!	!	!	!	!	!	!	!	!	!	!	!	!	!	!	!	!	!	!	!	!	!	!
4f#^^<\	ff	4.F#^\	.	64f#LLLL 64A#X\	.	64aa#XLLLL 64cc#X\	.	64ccc#XLLLL 64ff#\	.	4ff#\	za	Kö-	.	.	.	8r	.	8r	.	8.a#XL 8.c#X\	.	8.a#XL 8.f#X/	.	4.F#/	4.F#\	sf	8.a#XL 8.c#X/	<	8.aa#XL 8.cc#X\	.	8.ff#\L	.	8.ccc#X\L	.
.	.	.	.	64f# 64A#\	.	64aa# 64cc#\	.	64ccc# 64ff#\	.	.	.	.	.	.	.	.	.	.	.	.	.	.	.	.	.	.	.	.	.	.	.	.	.	.
.	.	.	.	64f# 64A#\	.	64aa# 64cc#\	.	64ccc# 64ff#\	.	.	.	.	.	.	.	.	.	.	.	.	.	.	.	.	.	.	.	.	.	.	.	.	.	.
.	.	.	.	64f# 64A#\	.	64aa# 64cc#\	.	64ccc# 64ff#\	.	.	.	.	.	.	.	.	.	.	.	.	.	.	.	.	.	.	.	.	.	.	.	.	.	.
.	.	.	.	64f# 64A#\	.	64aa# 64cc#\	.	64ccc# 64ff#\	.	.	.	.	.	.	.	.	.	.	.	.	.	.	.	.	.	.	.	.	.	.	.	.	.	.
.	.	.	.	64f# 64A#\	.	64aa# 64cc#\	.	64ccc# 64ff#\	.	.	.	.	.	.	.	.	.	.	.	.	.	.	.	.	.	.	.	.	.	.	.	.	.	.
.	.	.	.	64f# 64A#\	.	64aa# 64cc#\	.	64ccc# 64ff#\	.	.	.	.	.	.	.	.	.	.	.	.	.	.	.	.	.	.	.	.	.	.	.	.	.	.
.	.	.	.	64f# 64A#\	.	64aa# 64cc#\	.	64ccc# 64ff#\	.	.	.	.	.	.	.	.	.	.	.	.	.	.	.	.	.	.	.	.	.	.	.	.	.	.
.	.	.	.	64f# 64A#\	.	64aa# 64cc#\	.	64ccc# 64ff#\	.	.	.	.	.	.	.	16r	.	16r	.	.	.	.	.	.	.	.	.	.	.	.	.	.	.	.
.	.	.	.	64f# 64A#\	.	64aa# 64cc#\	.	64ccc# 64ff#\	.	.	.	.	.	.	.	.	.	.	.	.	.	.	.	.	.	.	.	.	.	.	.	.	.	.
.	.	.	.	64f# 64A#\	.	64aa# 64cc#\	.	64ccc# 64ff#\	.	.	.	.	.	.	.	.	.	.	.	.	.	.	.	.	.	.	.	.	.	.	.	.	.	.
.	.	.	.	64f# 64A#\	.	64aa# 64cc#\	.	64ccc# 64ff#\	.	.	.	.	.	.	.	.	.	.	.	.	.	.	.	.	.	.	.	.	.	.	.	.	.	.
!	!	!	!	!	!	!	!	!	!	!	!	!	!	!	!	!LO:TX:b:t=1o\n2o\n3o\nTuba	!	!	!	!	!	!	!	!	!	!	!	!	!	!	!	!	!	!
!	!	!	!	!	!	!	!	!	!	!	!	!	!	!	!	!LO:SIC:v:s=16c#KL 16A#X 16F#\ 16F#	!LO:DY:rj	!	!LO:DY:rj	!	!	!	!	!	!	!	!	!	!	!	!	!	!	!
.	.	.	.	64f# 64A#\	.	64aa# 64cc#\	.	64ccc# 64ff#\	.	.	.	.	.	.	.	16cKL 16A#X 16Fn\ 16F	f	16cc#XKL 16f#X/	f <	16a#K 16c#\	.	16a#K 16f#/	.	.	.	.	16a#K 16c#/	.	16aa#K 16cc#\	.	16ff#\K	.	16ccc#\K	.
.	.	.	.	64f# 64A#\	.	64aa# 64cc#\	.	64ccc# 64ff#\	.	.	.	.	.	.	.	.	.	.	.	.	.	.	.	.	.	.	.	.	.	.	.	.	.	.
.	.	.	.	64f# 64A#\	.	64aa# 64cc#\	.	64ccc# 64ff#\	.	.	.	.	.	.	.	.	.	.	.	.	.	.	.	.	.	.	.	.	.	.	.	.	.	.
.	.	.	.	64f# 64A#\	.	64aa# 64cc#\	.	64ccc# 64ff#\	.	.	.	.	.	.	.	.	.	.	.	.	.	.	.	.	.	.	.	.	.	.	.	.	.	.
!	!	!	!	!	!	!	!	!	!	!LO:TX:t=P:problem:nieczytelny tekst wyżej	!	!	!	!	!	!LO:SIC:v:s=8c#J 8A# 8F#\ 8F#	!	!	!	!	!	!	!	!	!	!	!	!	!	!	!	!	!	!
8r	.	.	.	64f# 64A#\	.	64aa# 64cc#\	.	64ccc# 64ff#\	.	8dd#\	kró-	-ni-	.	.	.	8cJ 8A# 8F\ 8F	.	8cc#J 8f#/	.	8a#J 8c#\	.	8a#J 8f#/	.	.	.	.	8a#J 8c#/	.	8aa#J 8cc#\	.	8ff#\J	.	8ccc#\J	.
.	.	.	.	64f# 64A#\	.	64aa# 64cc#\	.	64ccc# 64ff#\	.	.	.	.	.	.	.	.	.	.	.	.	.	.	.	.	.	.	.	.	.	.	.	.	.	.
.	.	.	.	64f# 64A#\	.	64aa# 64cc#\	.	64ccc# 64ff#\	.	.	.	.	.	.	.	.	.	.	.	.	.	.	.	.	.	.	.	.	.	.	.	.	.	.
.	.	.	.	64f# 64A#\	.	64aa# 64cc#\	.	64ccc# 64ff#\	.	.	.	.	.	.	.	.	.	.	.	.	.	.	.	.	.	.	.	.	.	.	.	.	.	.
.	.	.	.	64f# 64A#\	.	64aa# 64cc#\	.	64ccc# 64ff#\	.	.	.	.	.	.	.	.	.	.	.	.	.	.	.	.	.	.	.	.	.	.	.	.	.	.
.	.	.	.	64f# 64A#\	.	64aa# 64cc#\	.	64ccc# 64ff#\	.	.	.	.	.	.	.	.	.	.	.	.	.	.	.	.	.	.	.	.	.	.	.	.	.	.
.	.	.	.	64f# 64A#\	.	64aa# 64cc#\	.	64ccc# 64ff#\	.	.	.	.	.	.	.	.	.	.	.	.	.	.	.	.	.	.	.	.	.	.	.	.	.	.
.	.	.	.	64f#JJJJ 64A#\	.	64aa#JJJJ 64cc#\	.	64ccc#JJJJ 64ff#\	.	.	.	.	.	.	.	.	.	.	.	.	.	.	.	.	.	.	.	.	.	.	.	.	.	.
=19	=19	=19	=19	=19	=19	=19	=19	=19	=19	=19	=19	=19	=19	=19	=19	=19	=19	=19	=19	=19	=19	=19	=19	=19	=19	=19	=19	=19	=19	=19	=19	=19	=19	=19
*	*	*	*	*	*	*	*	*	*	*	*	*	*below	*tremolo	*	*	*	*	*	*	*	*	*	*	*	*	*	*	*	*	*	*	*	*
!	!	!	!LO:DY:rj	!	!LO:DY:rj	!	!LO:DY:rj	!	!LO:DY:rj	!LO:TX:t=P:problem:dopisek nad pięciolinią	!	!	!	!	!	!LO:SIC:v:n=3:s=8.F#	!	!	!	!	!	!	!	!	!	!	!	!	!	!	!	!	!	!LO:DY:a
(4B\	.	[4.BB/	ff	64f#LLLL 64B\	ff	64bbLLLL 64dd#X\	ff	64ddd#XLLLL 64ff#\	ff	8b\	-lo-	-gin.	.	32BB/LLL	sf	8.d#XL 8.B 8.F 8.BB\	sf <	8.dd#XL 8.bX/	sf	8.f#XL 8.BX\	.	8.bXL 8.d#X\	.	[4.B/	[4.BB\	sf	8.bL 8.d#X/	.	8.bbL 8.dd#X\	.	8.ff#\L	.	8.ddd#X\L	sf
.	.	.	.	64f# 64B\	.	64bb 64dd#\	.	64ddd# 64ff#\	.	.	.	.	.	.	.	.	.	.	.	.	.	.	.	.	.	.	.	.	.	.	.	.	.	.
.	.	.	.	64f# 64B\	.	64bb 64dd#\	.	64ddd# 64ff#\	.	.	.	.	.	32BB/	.	.	.	.	.	.	.	.	.	.	.	.	.	.	.	.	.	.	.	.
.	.	.	.	64f# 64B\	.	64bb 64dd#\	.	64ddd# 64ff#\	.	.	.	.	.	.	.	.	.	.	.	.	.	.	.	.	.	.	.	.	.	.	.	.	.	.
.	.	.	.	64f# 64B\	.	64bb 64dd#\	.	64ddd# 64ff#\	.	.	.	.	.	32BB/	.	.	.	.	.	.	.	.	.	.	.	.	.	.	.	.	.	.	.	.
.	.	.	.	64f# 64B\	.	64bb 64dd#\	.	64ddd# 64ff#\	.	.	.	.	.	.	.	.	.	.	.	.	.	.	.	.	.	.	.	.	.	.	.	.	.	.
.	.	.	.	64f# 64B\	.	64bb 64dd#\	.	64ddd# 64ff#\	.	.	.	.	.	32BB/	.	.	.	.	.	.	.	.	.	.	.	.	.	.	.	.	.	.	.	.
.	.	.	.	64f# 64B\	.	64bb 64dd#\	.	64ddd# 64ff#\	.	.	.	.	.	.	.	.	.	.	.	.	.	.	.	.	.	.	.	.	.	.	.	.	.	.
.	.	.	.	64f# 64B\	.	64bb 64dd#\	.	64ddd# 64ff#\	.	8b\	-wą	.	.	32BB/	.	.	.	.	.	.	.	.	.	.	.	.	.	.	.	.	.	.	.	.
.	.	.	.	64f# 64B\	.	64bb 64dd#\	.	64ddd# 64ff#\	.	.	.	.	.	.	.	.	.	.	.	.	.	.	.	.	.	.	.	.	.	.	.	.	.	.
.	.	.	.	64f# 64B\	.	64bb 64dd#\	.	64ddd# 64ff#\	.	.	.	.	.	32BB/	.	.	.	.	.	.	.	.	.	.	.	.	.	.	.	.	.	.	.	.
.	.	.	.	64f# 64B\	.	64bb 64dd#\	.	64ddd# 64ff#\	.	.	.	.	.	.	.	.	.	.	.	.	.	.	.	.	.	.	.	.	.	.	.	.	.	.
!	!	!	!	!	!	!	!	!	!	!	!	!	!	!	!	!LO:SIC:v:n=3:s=16F#	!	!	!	!	!	!	!	!	!	!	!	!	!	!	!	!	!	!
.	.	.	.	64f# 64B\	.	64bb 64dd#\	.	64ddd# 64ff#\	.	.	.	.	.	32BB/	.	16d#K 16B 16F 16BB\	.	16dd#K 16b/	.	16f#K 16B\	.	16bK 16d#\	.	.	.	.	16bK 16d#/	.	16bbK 16dd#\	.	16ff#\K	.	16ddd#\K	.
.	.	.	.	64f# 64B\	.	64bb 64dd#\	.	64ddd# 64ff#\	.	.	.	.	.	.	.	.	.	.	.	.	.	.	.	.	.	.	.	.	.	.	.	.	.	.
.	.	.	.	64f# 64B\	.	64bb 64dd#\	.	64ddd# 64ff#\	.	.	.	.	.	32BB/	.	.	.	.	.	.	.	.	.	.	.	.	.	.	.	.	.	.	.	.
.	.	.	.	64f# 64B\	.	64bb 64dd#\	.	64ddd# 64ff#\	.	.	.	.	.	.	.	.	.	.	.	.	.	.	.	.	.	.	.	.	.	.	.	.	.	.
!	!	!	!	!	!	!	!	!	!	!	!	!	!	!	!	!LO:SIC:v:n=3:s=8F#	!	!	!	!	!	!	!	!	!	!	!	!	!	!	!	!	!	!
8BB/)	.	.	.	64f# 64B\	.	64bb 64dd#\	.	64ddd# 64ff#\	.	8r	.	.	.	32BB/	.	8d#J 8B 8F 8BB\	.	8dd#J 8b/	.	8f#J 8B\	.	8bJ 8d#\	.	.	.	.	8bJ 8d#/	.	8bbJ 8dd#\	.	8ff#\J	.	8ddd#\J	.
.	.	.	.	64f# 64B\	.	64bb 64dd#\	.	64ddd# 64ff#\	.	.	.	.	.	.	.	.	.	.	.	.	.	.	.	.	.	.	.	.	.	.	.	.	.	.
.	.	.	.	64f# 64B\	.	64bb 64dd#\	.	64ddd# 64ff#\	.	.	.	.	.	32BB/	.	.	.	.	.	.	.	.	.	.	.	.	.	.	.	.	.	.	.	.
.	.	.	.	64f# 64B\	.	64bb 64dd#\	.	64ddd# 64ff#\	.	.	.	.	.	.	.	.	.	.	.	.	.	.	.	.	.	.	.	.	.	.	.	.	.	.
.	.	.	.	64f# 64B\	.	64bb 64dd#\	.	64ddd# 64ff#\	.	.	.	.	.	32BB/	.	.	.	.	.	.	.	.	.	.	.	.	.	.	.	.	.	.	.	.
.	.	.	.	64f# 64B\	.	64bb 64dd#\	.	64ddd# 64ff#\	.	.	.	.	.	.	.	.	.	.	.	.	.	.	.	.	.	.	.	.	.	.	.	.	.	.
.	.	.	.	64f# 64B\	.	64bb 64dd#\	.	64ddd# 64ff#\	.	.	.	.	.	32BB/JJJ	.	.	.	.	.	.	.	.	.	.	.	.	.	.	.	.	.	.	.	.
.	.	.	.	64f#JJJJ 64B\	.	64bbJJJJ 64dd#\	.	64ddd#JJJJ 64ff#\	.	.	.	.	.	.	.	.	.	.	.	.	.	.	.	.	.	.	.	.	.	.	.	.	.	.
*	*	*	*	*Xtremolo	*	*Xtremolo	*	*Xtremolo	*	*	*	*	*Xtremolo	*	*	*	*	*	*	*	*	*	*	*	*	*	*	*	*	*	*	*	*	*
!	!	!	!	!LO:TX:a:t=e\na	!	!	!	!	!	!	!	!	!	!	!	!LO:SIC:v:n=3:s=8F#	!	!	!	!	!	!	!	!	!	!	!	!	!	!	!	!	!	!
4r	.	8BB/]	.	8f# 8B\	.	8bb 8dd#\	.	8ddd# 8ff#\	.	4r	.	.	.	8BB/	.	8d# 8B 8F 8BB\	.	8dd# 8b/	[[	8f# 8B\	.	8b 8d#\	.	8B/]	8BB\]	.	8b 8d#/	.	8bb 8dd#\	.	8ff#\	.	8ddd#\	.
.	.	8r	.	8r	.	8r	.	8r	.	.	.	.	.	8r	.	8r	[	8r	[	8r	[	8r	[	8r	8ryy	.	8r	[	8r	[	8r	[	8r	[
8r	.	8r	.	8r	.	8r	.	8r	.	8r	.	.	.	8r	.	8r	.	8r	.	8r	.	8r	.	8r	8ryy	.	8r	.	8r	.	8r	.	8r	.
=20	=20	=20	=20	=20	=20	=20	=20	=20	=20	=20	=20	=20	=20	=20	=20	=20	=20	=20	=20	=20	=20	=20	=20	=20	=20	=20	=20	=20	=20	=20	=20	=20	=20	=20
*	*	*	*	*	*	*	*	*	*	*	*	*	*	*	*	*	*	*	*	*	*	*^	*	*	*	*	*	*	*	*	*	*	*	*
!	!	!LO:TX:a:t=Solo	!	!	!	!	!	!	!	!	!	!	!	!	!	!	!	!	!	!	!	!LO:TX:b:t=d	!	!LO:DY:rj	!	!	!LO:DY:a	!	!	!	!	!	!	!	!
2.r	.	8r	.	2.r	.	2.r	.	2.r	.	2.r	.	.	.	2.ryy	.	2.ryy	.	2.ryy	.	2.ryy	.	(4.BX/	(4.G\	p	[2.D/	(4.GG\	p	2.ryy	.	2.ryy	.	2.ryy	.	2.ryy	.
!	!	!	!LO:DY:rj	!	!	!	!	!	!	!	!	!	!	!	!	!	!	!	!	!	!	!	!	!	!	!	!	!	!	!	!	!	!	!	!
.	.	8B'\L	p <	.	.	.	.	.	.	.	.	.	.	.	.	.	.	.	.	.	.	.	.	.	.	.	.	.	.	.	.	.	.	.	.
.	.	8dn'\J	.	.	.	.	.	.	.	.	.	.	.	.	.	.	.	.	.	.	.	.	.	.	.	.	.	.	.	.	.	.	.	.	.
.	.	(8.f#\L	.	.	.	.	.	.	.	.	.	.	.	.	.	.	.	.	.	.	.	4.A#X/)	8D\)	.	.	4.FF#\)	.	.	.	.	.	.	.	.	.
.	.	.	.	.	.	.	.	.	.	.	.	.	.	.	.	.	.	.	.	.	.	.	8r	.	.	.	.	.	.	.	.	.	.	.	.
.	.	16e\K	.	.	.	.	.	.	.	.	.	.	.	.	.	.	.	.	.	.	.	.	.	.	.	.	.	.	.	.	.	.	.	.	.
.	.	8f#\J	[	.	.	.	.	.	.	.	.	.	.	.	.	.	.	.	.	.	.	.	8r	.	.	.	.	.	.	.	.	.	.	.	.
*	*	*	*	*	*	*	*	*	*	*	*	*	*	*	*	*	*	*	*	*	*	*v	*v	*	*	*	*	*	*	*	*	*	*	*	*
*	*	*	*	*	*	*	*	*	*	*	*	*	*	*	*	*	*	*	*	*	*	*	*	*v	*v	*	*	*	*	*	*	*	*	*
!!pagebreak:original
=21	=21	=21	=21	=21	=21	=21	=21	=21	=21	=21	=21	=21	=21	=21	=21	=21	=21	=21	=21	=21	=21	=21	=21	=21	=21	=21	=21	=21	=21	=21	=21	=21	=21
!LO:TX:b:t=piz	!LO:DY:a	!	!	!LO:TX:b:t=piz:rj	!	!LO:TX:b:t=piz:rj	!	!LO:TX:b:rj:t=piz	!LO:DY:a	!	!	!	!	!	!	!	!	!	!	!	!	!	!	!LO:TX:t=P:problem:łuk	!	!	!	!	!	!	!	!	!
!	!	!	!	!LO:SIC:v:s=8Fn/	!	!	!	!	!	!	!	!	!	!	!	!	!	!	!	!	!	!	!	!	!	!	!	!	!	!	!	!	!
8Fn\	sf	8g)	.	8F#/	sf	8d 8G/	sf	8g 8B/	sf	4r	.	.	.	2.ryy	.	2.ryy	.	2.ryy	.	2.ryy	.	4.BX/	.	4.D] 4.FFn/	.	2.ryy	.	8r	.	2.ryy	.	2.ryy	.
!	!	!	!	!	!	!	!	!	!	!	!	!	!	!	!	!	!	!	!	!	!	!	!	!	!	!	!	!LO:TX:a:t=1o Solo	!LO:DY:b:rj	!	!	!	!
8r	.	8r	.	8r	.	8r	.	8r	.	.	.	.	.	.	.	.	.	.	.	.	.	.	.	.	.	.	.	8g'\L	p <	.	.	.	.
8r	.	8r	.	8r	.	8r	.	8r	.	8r	.	.	.	.	.	.	.	.	.	.	.	.	.	.	.	.	.	8b'\J	.	.	.	.	.
4r	.	4r	.	4r	.	4r	.	4r	.	4r	.	.	.	.	.	.	.	.	.	.	.	4r	.	4r	.	.	.	(8.dd\L	.	.	.	.	.
.	.	.	.	.	.	.	.	.	.	.	.	.	.	.	.	.	.	.	.	.	.	.	.	.	.	.	.	16cc\K	.	.	.	.	.
8r	.	8r	.	8r	.	8r	.	8r	.	8g/	czy	.	.	.	.	.	.	.	.	.	.	8r	.	8r	.	.	.	8b\J	[[	.	.	.	.
=22	=22	=22	=22	=22	=22	=22	=22	=22	=22	=22	=22	=22	=22	=22	=22	=22	=22	=22	=22	=22	=22	=22	=22	=22	=22	=22	=22	=22	=22	=22	=22	=22	=22
=22	=22	=22	=22	=22	=22	=22	=22	=22	=22	=22	=22	=22	=22	=22	=22	=22	=22	=22	=22	=22	=22	=22	=22	=22	=22	=22	=22	=22	=22	=22	=22	=22	=22
!LO:TX:b:t=arco	!	!	!	!LO:TX:b:t=arco	!LO:DY:rj	!LO:TX:b:t=arco	!LO:DY:rj	!LO:TX:b:t=arco	!	!	!	!	!	!	!	!	!	!	!	!	!	!	!	!	!	!	!	!	!	!	!	!	!
[2.E\yy	pp	[2.E\	pp	(8G/L	pp	(8B/L	pp	(8e/L	pp	8e/L	znasz	Kennst	.	4r	.	2.ryy	.	2.ryy	.	2.ryy	.	2.ryy	.	2.ryy	.	2.ryy	.	8ee\)	.	2.ryy	.	2.ryy	.
.	.	.	.	8A/	.	8c/	.	8f#/	.	8f#/J	.	du	.	.	.	.	.	.	.	.	.	.	.	.	.	.	.	8r	.	.	.	.	.
.	.	.	.	8B/J	.	8e/J	.	8g/J	.	8g/	pio-	das	.	8r	.	.	.	.	.	.	.	.	.	.	.	.	.	8r	.	.	.	.	.
!	!	!	!	!	!	!	!	!	!	!	!	!	!	!	!LO:DY:rj	!	!	!	!	!	!	!	!	!	!	!	!	!	!	!	!	!	!
.	.	.	.	8A/L	.	8c/L	.	8f#/L	.	8f#/L	-sen-	al-	.	32E\LLL	pp	.	.	.	.	.	.	.	.	.	.	.	.	4r	.	.	.	.	.
.	.	.	.	.	.	.	.	.	.	.	.	.	.	32E\	.	.	.	.	.	.	.	.	.	.	.	.	.	.	.	.	.	.	.
.	.	.	.	.	.	.	.	.	.	.	.	.	.	32E\	.	.	.	.	.	.	.	.	.	.	.	.	.	.	.	.	.	.	.
.	.	.	.	.	.	.	.	.	.	.	.	.	.	32E\	.	.	.	.	.	.	.	.	.	.	.	.	.	.	.	.	.	.	.
.	.	.	.	8G/	.	8B/	.	8e/	.	8e/J	.	.	.	32E\	.	.	.	.	.	.	.	.	.	.	.	.	.	.	.	.	.	.	.
.	.	.	.	.	.	.	.	.	.	.	.	.	.	32E\	.	.	.	.	.	.	.	.	.	.	.	.	.	.	.	.	.	.	.
.	.	.	.	.	.	.	.	.	.	.	.	.	.	32E\	.	.	.	.	.	.	.	.	.	.	.	.	.	.	.	.	.	.	.
.	.	.	.	.	.	.	.	.	.	.	.	.	.	32E\	.	.	.	.	.	.	.	.	.	.	.	.	.	.	.	.	.	.	.
.	.	.	.	8F#/J	.	8B/J	.	8d#X/J	.	8d#X/	-kę	-te	.	32E\	.	.	.	.	.	.	.	.	.	.	.	.	.	8r	.	.	.	.	.
.	.	.	.	.	.	.	.	.	.	.	.	.	.	32E\	.	.	.	.	.	.	.	.	.	.	.	.	.	.	.	.	.	.	.
.	.	.	.	.	.	.	.	.	.	.	.	.	.	32E\	.	.	.	.	.	.	.	.	.	.	.	.	.	.	.	.	.	.	.
.	.	.	.	.	.	.	.	.	.	.	.	.	.	32E\JJJ	.	.	.	.	.	.	.	.	.	.	.	.	.	.	.	.	.	.	.
=23	=23	=23	=23	=23	=23	=23	=23	=23	=23	=23	=23	=23	=23	=23	=23	=23	=23	=23	=23	=23	=23	=23	=23	=23	=23	=23	=23	=23	=23	=23	=23	=23	=23
4.E\]yy	.	4.E\]	.	4.G/	.	4.B/	.	4.e/	.	4.e/	sta-	Lied-	.	8E\	.	2.ryy	.	2.ryy	.	2.ryy	.	2.ryy	.	2.ryy	.	2.ryy	.	2.ryy	.	2.ryy	.	2.ryy	.
.	.	.	.	.	.	.	.	.	.	.	.	.	.	8r	.	.	.	.	.	.	.	.	.	.	.	.	.	.	.	.	.	.	.
.	.	.	.	.	.	.	.	.	.	.	.	.	.	8r	.	.	.	.	.	.	.	.	.	.	.	.	.	.	.	.	.	.	.
[4.E\yy	.	[4.E\	.	4.E/)	.	4c/	.	4c/	.	4c/	-rą	-chen,	.	32E\LLL	.	.	.	.	.	.	.	.	.	.	.	.	.	.	.	.	.	.	.
.	.	.	.	.	.	.	.	.	.	.	.	.	.	32E\	.	.	.	.	.	.	.	.	.	.	.	.	.	.	.	.	.	.	.
.	.	.	.	.	.	.	.	.	.	.	.	.	.	32E\	.	.	.	.	.	.	.	.	.	.	.	.	.	.	.	.	.	.	.
.	.	.	.	.	.	.	.	.	.	.	.	.	.	32E\	.	.	.	.	.	.	.	.	.	.	.	.	.	.	.	.	.	.	.
.	.	.	.	.	.	.	.	.	.	.	.	.	.	32E\	.	.	.	.	.	.	.	.	.	.	.	.	.	.	.	.	.	.	.
.	.	.	.	.	.	.	.	.	.	.	.	.	.	32E\	.	.	.	.	.	.	.	.	.	.	.	.	.	.	.	.	.	.	.
.	.	.	.	.	.	.	.	.	.	.	.	.	.	32E\	.	.	.	.	.	.	.	.	.	.	.	.	.	.	.	.	.	.	.
.	.	.	.	.	.	.	.	.	.	.	.	.	.	32E\	.	.	.	.	.	.	.	.	.	.	.	.	.	.	.	.	.	.	.
.	.	.	.	.	.	8d/	.	8dn/	.	8dn/	jej	es	.	32E\	.	.	.	.	.	.	.	.	.	.	.	.	.	.	.	.	.	.	.
.	.	.	.	.	.	.	.	.	.	.	.	.	.	32E\	.	.	.	.	.	.	.	.	.	.	.	.	.	.	.	.	.	.	.
.	.	.	.	.	.	.	.	.	.	.	.	.	.	32E\	.	.	.	.	.	.	.	.	.	.	.	.	.	.	.	.	.	.	.
.	.	.	.	.	.	.	.	.	.	.	.	.	.	32E\JJJ	.	.	.	.	.	.	.	.	.	.	.	.	.	.	.	.	.	.	.
=24	=24	=24	=24	=24	=24	=24	=24	=24	=24	=24	=24	=24	=24	=24	=24	=24	=24	=24	=24	=24	=24	=24	=24	=24	=24	=24	=24	=24	=24	=24	=24	=24	=24
*	*	*	*	*	*	*	*	*	*	*	*	*	*	*	*	*	*	*	*	*	*	*	*	*^	*	*^	*	*^	*	*	*	*	*
!	!	!	!	!	!	!	!	!	!	!	!	!	!	!	!	!	!	!	!	!	!	!	!	!LO:TX:b:t=Fagot.	!	!	!	!	!	!	!	!	!	!	!	!
8.E\L]yy	.	8.E\L]	.	(4.G/	.	4B/)	.	4e/)	.	4e/	dzwięk	klingt	.	8E\	.	2.ryy	.	2.ryy	.	2.ryy	.	(4.e (4.E/	pp	4r	4ryy	.	2.ryy	4ryy	.	4rcc	4re	.	2.ryy	.	2.ryy	.
.	.	.	.	.	.	.	.	.	.	.	.	.	.	8r	.	.	.	.	.	.	.	.	.	.	.	.	.	.	.	.	.	.	.	.	.	.
16D'\Kyy	.	16D'\K	.	.	.	.	.	.	.	.	.	.	.	.	.	.	.	.	.	.	.	.	.	.	.	.	.	.	.	.	.	.	.	.	.	.
!	!	!	!	!	!	!	!	!	!	!	!	!	!	!	!	!	!	!	!	!	!	!	!	!	!	!	!	!	!	!	!	!LO:DY:rj	!	!	!	!
8C'\Jyy	.	8C'\J	.	.	.	8r	.	(8e/	.	8e/	się	so	.	8r	.	.	.	.	.	.	.	.	.	8r	8ryy	.	.	8ryy	.	(8e/	8r	p	.	.	.	.
!	!	!	!	!	!	!LO:TX:b:t=a	!	!	!	!	!	!	!	!	!	!	!	!	!	!	!	!	!	!	!	!LO:DY:rj	!	!	!	!	!	!	!	!	!	!
4.BB^>/yy	.	4.BB^>/	.	4.A/)	.	(4.A/	.	4.d#X/)	.	4b\	słod-	süss	.	32BB^/LLL	.	.	.	.	.	.	.	4.d#X 4.D#X/))	.	4.A/	4.BB\	pp	.	4.ryy	.	4b/	(4.d#X\	.	.	.	.	.
.	.	.	.	.	.	.	.	.	.	.	.	.	.	32BB/	.	.	.	.	.	.	.	.	.	.	.	.	.	.	.	.	.	.	.	.	.	.
.	.	.	.	.	.	.	.	.	.	.	.	.	.	32BB/	.	.	.	.	.	.	.	.	.	.	.	.	.	.	.	.	.	.	.	.	.	.
.	.	.	.	.	.	.	.	.	.	.	.	.	.	32BB/	.	.	.	.	.	.	.	.	.	.	.	.	.	.	.	.	.	.	.	.	.	.
.	.	.	.	.	.	.	.	.	.	.	.	.	.	32BB/	.	.	.	.	.	.	.	.	.	.	.	.	.	.	.	.	.	.	.	.	.	.
.	.	.	.	.	.	.	.	.	.	.	.	.	.	32BB/	.	.	.	.	.	.	.	.	.	.	.	.	.	.	.	.	.	.	.	.	.	.
.	.	.	.	.	.	.	.	.	.	.	.	.	.	32BB/	.	.	.	.	.	.	.	.	.	.	.	.	.	.	.	.	.	.	.	.	.	.
.	.	.	.	.	.	.	.	.	.	.	.	.	.	32BB/	.	.	.	.	.	.	.	.	.	.	.	.	.	.	.	.	.	.	.	.	.	.
.	.	.	.	.	.	.	.	.	.	8g/	-ko	es	.	32BB/	.	.	.	.	.	.	.	.	.	.	.	.	.	.	.	8g/)	.	.	.	.	.	.
.	.	.	.	.	.	.	.	.	.	.	.	.	.	32BB/	.	.	.	.	.	.	.	.	.	.	.	.	.	.	.	.	.	.	.	.	.	.
.	.	.	.	.	.	.	.	.	.	.	.	.	.	32BB/	.	.	.	.	.	.	.	.	.	.	.	.	.	.	.	.	.	.	.	.	.	.
.	.	.	.	.	.	.	.	.	.	.	.	.	.	32BB/JJJ	.	.	.	.	.	.	.	.	.	.	.	.	.	.	.	.	.	.	.	.	.	.
!!pagebreak:original
=25	=25	=25	=25	=25	=25	=25	=25	=25	=25	=25	=25	=25	=25	=25	=25	=25	=25	=25	=25	=25	=25	=25	=25	=25	=25	=25	=25	=25	=25	=25	=25	=25	=25	=25	=25	=25
*	*	*	*	*	*	*	*	*	*	*	*	*	*	*	*	*	*	*	*	*	*	*	*	*	*	*	*	*	*	*	*	*	*	*	*	*
8.E\Lyy	.	8.E\L	.	4.G/	.	4B/)	.	4.e/	.	4e/	słod-	Klingt	.	4r	.	2.ryy	.	2.ryy	.	2.ryy	.	4.e 4.E/	.	4G/	4E\	.	4r	4r	.	4e/	8e\)	.	4r	.	4r	.
.	.	.	.	.	.	.	.	.	.	.	.	.	.	.	.	.	.	.	.	.	.	.	.	.	.	.	.	.	.	.	8r	.	.	.	.	.
16D\Kyy	.	16D\K	.	.	.	.	.	.	.	.	.	.	.	.	.	.	.	.	.	.	.	.	.	.	.	.	.	.	.	.	.	.	.	.	.	.
!	!	!	!	!	!	!	!	!	!	!	!	!	!	!	!	!	!	!	!	!	!	!	!	!	!	!	!	!	!LO:DY:rj	!	!	!	!	!	!	!LO:DY:rj
8C\Jyy	.	8C\J	.	.	.	8r	.	.	.	8e/	-ko	so	.	8r	.	.	.	.	.	.	.	.	.	8r	8ryy	.	(8e/	8r	p	(8e/	8r	.	8r	.	(8ee\	p
!	!	!	!	!	!	!	!	!	!	!	!	!	!	!	!	!	!	!	!	!	!	!	!	!	!	!	!	!	!	!	!	!	!	!LO:DY:rj	!	!
4.BB^/yy	.	4.BB^/	.	(4.A/	.	(4.A/	.	(4.d#X/	.	8b\	ża-	trüb,	.	32BB/LLL	<	.	.	.	.	.	.	(4.d#X (4.D#X/	.	(4.A/	(4.BB\	.	4b/	(4.A\	.	4b/	(4.d#X\	.	(4.dd#X^\	p	4bb\	.
.	.	.	.	.	.	.	.	.	.	.	.	.	.	32BB/	.	.	.	.	.	.	.	.	.	.	.	.	.	.	.	.	.	.	.	.	.	.
.	.	.	.	.	.	.	.	.	.	.	.	.	.	32BB/	.	.	.	.	.	.	.	.	.	.	.	.	.	.	.	.	.	.	.	.	.	.
.	.	.	.	.	.	.	.	.	.	.	.	.	.	32BB/	.	.	.	.	.	.	.	.	.	.	.	.	.	.	.	.	.	.	.	.	.	.
.	.	.	.	.	.	.	.	.	.	8g\	-li	.	.	32BB/	.	.	.	.	.	.	.	.	.	.	.	.	.	.	.	.	.	.	.	.	.	.
.	.	.	.	.	.	.	.	.	.	.	.	.	.	32BB/	.	.	.	.	.	.	.	.	.	.	.	.	.	.	.	.	.	.	.	.	.	.
.	.	.	.	.	.	.	.	.	.	.	.	.	.	32BB/	.	.	.	.	.	.	.	.	.	.	.	.	.	.	.	.	.	.	.	.	.	.
.	.	.	.	.	.	.	.	.	.	.	.	.	.	32BB/	.	.	.	.	.	.	.	.	.	.	.	.	.	.	.	.	.	.	.	.	.	.
.	.	.	.	.	.	.	.	.	.	8g\	mu-	sie	.	32BB/	.	.	.	.	.	.	.	.	.	.	.	.	8g/	.	.	8g/	.	.	.	.	8gg\	.
.	.	.	.	.	.	.	.	.	.	.	.	.	.	32BB/	.	.	.	.	.	.	.	.	.	.	.	.	.	.	.	.	.	.	.	.	.	.
.	.	.	.	.	.	.	.	.	.	.	.	.	.	32BB/	.	.	.	.	.	.	.	.	.	.	.	.	.	.	.	.	.	.	.	.	.	.
.	.	.	.	.	.	.	.	.	.	.	.	.	.	32BB/JJJ	[[	.	.	.	.	.	.	.	.	.	.	.	.	.	.	.	.	.	.	.	.	.
=26	=26	=26	=26	=26	=26	=26	=26	=26	=26	=26	=26	=26	=26	=26	=26	=26	=26	=26	=26	=26	=26	=26	=26	=26	=26	=26	=26	=26	=26	=26	=26	=26	=26	=26	=26	=26
*	*	*	*	*	*	*	*	*	*	*	*	*	*	*	*	*^	*	*	*	*	*	*	*	*	*	*	*	*	*	*	*	*	*	*	*	*
!	!	!	!	!	!	!	!	!	!	!	!	!	!	!	!	!LO:TX:a:t=3o\nTuba	!	!	!	!	!	!	!	!	!	!	!	!	!	!	!	!	!	!	!	!	!
!LO:TX:b:t=rit	!	!LO:TX:b:t=rit	!	!LO:TX:b:t=rit	!	!LO:TX:b:t=rit	!	!LO:TX:b:t=rit	!	!	!	!	!	!	!	!	!	!	!	!	!	!	!	!	!	!	!	!	!	!	!	!	!	!	!	!	!
8E\Lyy	.	8E\L	.	4G/)	.	4A/)	.	4e/)	.	4e/	-sia-	muss-	.	2.ryy	.	[2.E/	[2.E\	sf	2.ryy	.	2.ryy	.	8e 8E/))	.	8G/)	8.E\L)	<	8e/)	8G\)	.	8e/)	8e\)	.	8ee\)	.	8ee\)	.
!	!	!	!	!	!	!	!	!	!	!	!	!	!	!	!	!	!	!	!	!	!	!	!LO:TX:a:t=rit	!	!	!	!	!	!	!	!	!	!	!	!	!	!
8D#X^\yy	.	8D#X^\	.	.	.	.	.	.	.	.	.	.	.	.	.	.	.	.	.	.	.	.	8r	.	8rB	.	.	8r	8ryy	.	8r	8ryy	.	8r	.	8r	.
.	.	.	.	.	.	.	.	.	.	.	.	.	.	.	.	.	.	.	.	.	.	.	.	.	.	16D#X'>\K	.	.	.	.	.	.	.	.	.	.	.
!	!LO:HP:t=cresc.	!	!LO:HP:t=cresc.	!	!LO:HP:t=cresc.	!	!LO:HP:t=cresc	!	!LO:HP:t=crescendo	!	!	!	!	!	!	!LO:TX:b:t=rit	!	!	!	!	!	!	!	!	!	!	!	!	!	!	!	!	!	!	!	!	!
8Dn^\Jyy	<	8Dn^\J	<	8G/	<	8B/	<	8f#~/	<	8f#/	-ło	-ten	.	.	.	.	.	.	.	.	.	.	8r	.	8rB	8Dn'>\J	.	8r	8ryy	.	8r	8ryy	.	8r	.	8r	.
8C#X^\Lyy	.	8C#X^\L	.	4G/	.	4B/	.	4e~/	.	4e/	um-	bei-	.	.	.	.	.	.	.	.	.	.	4r	.	4rB	8C#X'>\L	.	4r	4ryy	.	4r	4ryy	.	4r	.	4r	.
8Cn^\yy	.	8Cn^\	.	.	.	.	.	.	.	.	.	.	.	.	.	.	.	.	.	.	.	.	.	.	.	8Cn'>\	.	.	.	.	.	.	.	.	.	.	.
8BB^\Jyy	.	8BB^\J	.	8G/	.	8c/	.	8e~/	.	8c/	-rzeć	-de	.	.	.	.	.	.	.	.	.	.	8r	[[	8BB/	8BB\J	.	8r	8ryy	.	8r	8ryy	.	8r	.	8r	.
*	*	*	*	*	*	*	*	*	*	*	*	*	*	*	*	*	*	*	*	*	*	*	*	*	*	*	*	*v	*v	*	*	*	*	*	*	*	*
*	*	*	*	*	*	*	*	*	*	*	*	*	*	*	*	*	*	*	*	*	*	*	*	*	*	*	*	*	*	*v	*v	*	*	*	*	*
=27	=27	=27	=27	=27	=27	=27	=27	=27	=27	=27	=27	=27	=27	=27	=27	=27	=27	=27	=27	=27	=27	=27	=27	=27	=27	=27	=27	=27	=27	=27	=27	=27	=27	=27	=27
*	*	*	*	*tremolo	*	*tremolo	*	*tremolo	*	*	*	*	*	*	*	*	*	*	*	*	*	*	*	*	*	*	*	*	*	*	*	*	*	*	*
!	!	!	!	!	!	!	!	!	!	!	!	!	!	!	!	!	!	!	!	!	!LO:TX:b:t=coperti	!	!LO:TX:b:t=coperti	!LO:DY:rj	!	!	!LO:DY:rj	!	!	!	!	!	!	!	!
8.AA/L	f <	8.AA/L	f <	64A/LLLL	f <	64c/LLLL	f <	64e/LLLL	f <	4.e/	dwo-	ster-	.	4r	.	8E/]	8E\]	.	2.r	.	4.c 4.E/	.	4.e 4.A/	f < <	8.AA/L	8.AA\L	[ f <	2.ryy	.	2.ryy	.	2.ryy	.	2.ryy	.
.	.	.	.	64A/	.	64c/	.	64e/	.	.	.	.	.	.	.	.	.	.	.	.	.	.	.	.	.	.	.	.	.	.	.	.	.	.	.
.	.	.	.	64A/	.	64c/	.	64e/	.	.	.	.	.	.	.	.	.	.	.	.	.	.	.	.	.	.	.	.	.	.	.	.	.	.	.
.	.	.	.	64A/	.	64c/	.	64e/	.	.	.	.	.	.	.	.	.	.	.	.	.	.	.	.	.	.	.	.	.	.	.	.	.	.	.
.	.	.	.	64A/	.	64c/	.	64e/	.	.	.	.	.	.	.	.	.	.	.	.	.	.	.	.	.	.	.	.	.	.	.	.	.	.	.
.	.	.	.	64A/	.	64c/	.	64e/	.	.	.	.	.	.	.	.	.	.	.	.	.	.	.	.	.	.	.	.	.	.	.	.	.	.	.
.	.	.	.	64A/	.	64c/	.	64e/	.	.	.	.	.	.	.	.	.	.	.	.	.	.	.	.	.	.	.	.	.	.	.	.	.	.	.
.	.	.	.	64A/	.	64c/	.	64e/	.	.	.	.	.	.	.	.	.	.	.	.	.	.	.	.	.	.	.	.	.	.	.	.	.	.	.
.	.	.	.	64A/	.	64c/	.	64e/	.	.	.	.	.	.	.	8r	8ryy	.	.	.	.	.	.	.	.	.	.	.	.	.	.	.	.	.	.
.	.	.	.	64A/	.	64c/	.	64e/	.	.	.	.	.	.	.	.	.	.	.	.	.	.	.	.	.	.	.	.	.	.	.	.	.	.	.
.	.	.	.	64A/	.	64c/	.	64e/	.	.	.	.	.	.	.	.	.	.	.	.	.	.	.	.	.	.	.	.	.	.	.	.	.	.	.
.	.	.	.	64A/	.	64c/	.	64e/	.	.	.	.	.	.	.	.	.	.	.	.	.	.	.	.	.	.	.	.	.	.	.	.	.	.	.
16GG/K	.	16GG/K	.	64A/	.	64c/	.	64e/	.	.	.	.	.	.	.	.	.	.	.	.	.	.	.	.	16GG/K	16GG\K	.	.	.	.	.	.	.	.	.
.	.	.	.	64A/	.	64c/	.	64e/	.	.	.	.	.	.	.	.	.	.	.	.	.	.	.	.	.	.	.	.	.	.	.	.	.	.	.
.	.	.	.	64A/	.	64c/	.	64e/	.	.	.	.	.	.	.	.	.	.	.	.	.	.	.	.	.	.	.	.	.	.	.	.	.	.	.
.	.	.	.	64A/	.	64c/	.	64e/	.	.	.	.	.	.	.	.	.	.	.	.	.	.	.	.	.	.	.	.	.	.	.	.	.	.	.
[8FFn/J	.	[8FFn/J	.	64A/	.	64c/	.	64e/	.	.	.	.	.	8r	.	8r	8ryy	.	.	.	.	.	.	.	[8FFn/J	[8FF\J	.	.	.	.	.	.	.	.	.
.	.	.	.	64A/	.	64c/	.	64e/	.	.	.	.	.	.	.	.	.	.	.	.	.	.	.	.	.	.	.	.	.	.	.	.	.	.	.
.	.	.	.	64A/	.	64c/	.	64e/	.	.	.	.	.	.	.	.	.	.	.	.	.	.	.	.	.	.	.	.	.	.	.	.	.	.	.
.	.	.	.	64A/	.	64c/	.	64e/	.	.	.	.	.	.	.	.	.	.	.	.	.	.	.	.	.	.	.	.	.	.	.	.	.	.	.
.	.	.	.	64A/	.	64c/	.	64e/	.	.	.	.	.	.	.	.	.	.	.	.	.	.	.	.	.	.	.	.	.	.	.	.	.	.	.
.	.	.	.	64A/	.	64c/	.	64e/	.	.	.	.	.	.	.	.	.	.	.	.	.	.	.	.	.	.	.	.	.	.	.	.	.	.	.
.	.	.	.	64A/	.	64c/	.	64e/	.	.	.	.	.	.	.	.	.	.	.	.	.	.	.	.	.	.	.	.	.	.	.	.	.	.	.
.	.	.	.	64A/JJJJ	.	64c/JJJJ	.	64e/JJJJ	.	.	.	.	.	.	.	.	.	.	.	.	.	.	.	.	.	.	.	.	.	.	.	.	.	.	.
8.FF/L]	.	8.FF/L]	.	64Fn/LLLL	.	64c/LLLL	.	64fnLLLL 64A/	.	4.fn/	-je!	-ben!	.	64BB/LLLL	sf <	4r	4ryy	.	.	.	[4.c [4.F/	.	[4.f [4.A/	[ sf	8.FF/L]	8.FF\L]	.	.	.	.	.	.	.	.	.
.	.	.	.	64F/	.	64c/	.	64f 64A/	.	.	.	.	.	64BB/	.	.	.	.	.	.	.	.	.	.	.	.	.	.	.	.	.	.	.	.	.
.	.	.	.	64F/	.	64c/	.	64f 64A/	.	.	.	.	.	64BB/	.	.	.	.	.	.	.	.	.	.	.	.	.	.	.	.	.	.	.	.	.
.	.	.	.	64F/	.	64c/	.	64f 64A/	.	.	.	.	.	64BB/	.	.	.	.	.	.	.	.	.	.	.	.	.	.	.	.	.	.	.	.	.
.	.	.	.	64F/	.	64c/	.	64f 64A/	.	.	.	.	.	64BB/	.	.	.	.	.	.	.	.	.	.	.	.	.	.	.	.	.	.	.	.	.
.	.	.	.	64F/	.	64c/	.	64f 64A/	.	.	.	.	.	64BB/	.	.	.	.	.	.	.	.	.	.	.	.	.	.	.	.	.	.	.	.	.
.	.	.	.	64F/	.	64c/	.	64f 64A/	.	.	.	.	.	64BB/	.	.	.	.	.	.	.	.	.	.	.	.	.	.	.	.	.	.	.	.	.
.	.	.	.	64F/	.	64c/	.	64f 64A/	.	.	.	.	.	64BB/	.	.	.	.	.	.	.	.	.	.	.	.	.	.	.	.	.	.	.	.	.
.	.	.	.	64F/	.	64c/	.	64f 64A/	.	.	.	.	.	64BB/	.	.	.	.	.	.	.	.	.	.	.	.	.	.	.	.	.	.	.	.	.
.	.	.	.	64F/	.	64c/	.	64f 64A/	.	.	.	.	.	64BB/	.	.	.	.	.	.	.	.	.	.	.	.	.	.	.	.	.	.	.	.	.
.	.	.	.	64F/	.	64c/	.	64f 64A/	.	.	.	.	.	64BB/	.	.	.	.	.	.	.	.	.	.	.	.	.	.	.	.	.	.	.	.	.
.	.	.	.	64F/	.	64c/	.	64f 64A/	.	.	.	.	.	64BB/	.	.	.	.	.	.	.	.	.	.	.	.	.	.	.	.	.	.	.	.	.
16EE/K	.	16EE/K	.	64F/	.	64c/	.	64f 64A/	.	.	.	.	.	64BB/	.	.	.	.	.	.	.	.	.	.	16EE/K	16EE\K	.	.	.	.	.	.	.	.	.
.	.	.	.	64F/	.	64c/	.	64f 64A/	.	.	.	.	.	64BB/	.	.	.	.	.	.	.	.	.	.	.	.	.	.	.	.	.	.	.	.	.
.	.	.	.	64F/	.	64c/	.	64f 64A/	.	.	.	.	.	64BB/	.	.	.	.	.	.	.	.	.	.	.	.	.	.	.	.	.	.	.	.	.
.	.	.	.	64F/	.	64c/	.	64f 64A/	.	.	.	.	.	64BB/	.	.	.	.	.	.	.	.	.	.	.	.	.	.	.	.	.	.	.	.	.
[8D/J	.	[8DD/J	.	64F/	.	64c/	.	64f 64A/	.	.	.	.	.	64BB/	.	8r	8ryy	.	.	.	.	.	.	.	8DD/J	8DD\J	.	.	.	.	.	.	.	.	.
.	.	.	.	64F/	.	64c/	.	64f 64A/	.	.	.	.	.	64BB/	.	.	.	.	.	.	.	.	.	.	.	.	.	.	.	.	.	.	.	.	.
.	.	.	.	64F/	.	64c/	.	64f 64A/	.	.	.	.	.	64BB/	.	.	.	.	.	.	.	.	.	.	.	.	.	.	.	.	.	.	.	.	.
.	.	.	.	64F/	.	64c/	.	64f 64A/	.	.	.	.	.	64BB/	.	.	.	.	.	.	.	.	.	.	.	.	.	.	.	.	.	.	.	.	.
.	.	.	.	64F/	.	64c/	.	64f 64A/	.	.	.	.	.	64BB/	.	.	.	.	.	.	.	.	.	.	.	.	.	.	.	.	.	.	.	.	.
.	.	.	.	64F/	.	64c/	.	64f 64A/	.	.	.	.	.	64BB/	.	.	.	.	.	.	.	.	.	.	.	.	.	.	.	.	.	.	.	.	.
.	.	.	.	64F/	.	64c/	.	64f 64A/	.	.	.	.	.	64BB/	.	.	.	.	.	.	.	.	.	.	.	.	.	.	.	.	.	.	.	.	.
.	[[	.	[[	64F/JJJJ	[[	64c/JJJJ	[[	64fJJJJ 64A/	[[	.	.	.	.	64BB/JJJJ	[[	.	.	.	.	.	.	.	.	.	.	.	[	.	.	.	.	.	.	.	.
*	*	*	*	*	*	*	*	*	*	*	*	*	*	*	*	*v	*v	*	*	*	*	*	*	*	*	*	*	*	*	*	*	*	*	*	*
=28	=28	=28	=28	=28	=28	=28	=28	=28	=28	=28	=28	=28	=28	=28	=28	=28	=28	=28	=28	=28	=28	=28	=28	=28	=28	=28	=28	=28	=28	=28	=28	=28	=28	=28
8.D/L]	>	8.DD/L]	>	64Fn/LLLL	>	64c/LLLL	>	64fnLLLL 64A/	>	2.ryy	.	.	.	64BB/LLLL	>	2.r	.	2.r	.	4.c] 4.F/]	.	4.f] 4.A/]	>	8.DD/L	8.DD\L	>	2.ryy	.	2.ryy	.	2.ryy	.	2.ryy	.
.	.	.	.	64F/	.	64c/	.	64f 64A/	.	.	.	.	.	64BB/	.	.	.	.	.	.	.	.	.	.	.	.	.	.	.	.	.	.	.	.
.	.	.	.	64F/	.	64c/	.	64f 64A/	.	.	.	.	.	64BB/	.	.	.	.	.	.	.	.	.	.	.	.	.	.	.	.	.	.	.	.
.	.	.	.	64F/	.	64c/	.	64f 64A/	.	.	.	.	.	64BB/	.	.	.	.	.	.	.	.	.	.	.	.	.	.	.	.	.	.	.	.
.	.	.	.	64F/	.	64c/	.	64f 64A/	.	.	.	.	.	64BB/	.	.	.	.	.	.	.	.	.	.	.	.	.	.	.	.	.	.	.	.
.	.	.	.	64F/	.	64c/	.	64f 64A/	.	.	.	.	.	64BB/	.	.	.	.	.	.	.	.	.	.	.	.	.	.	.	.	.	.	.	.
.	.	.	.	64F/	.	64c/	.	64f 64A/	.	.	.	.	.	64BB/	.	.	.	.	.	.	.	.	.	.	.	.	.	.	.	.	.	.	.	.
.	.	.	.	64F/	.	64c/	.	64f 64A/	.	.	.	.	.	64BB/	.	.	.	.	.	.	.	.	.	.	.	.	.	.	.	.	.	.	.	.
.	.	.	.	64F/	.	64c/	.	64f 64A/	.	.	.	.	.	64BB/	.	.	.	.	.	.	.	.	.	.	.	.	.	.	.	.	.	.	.	.
.	.	.	.	64F/	.	64c/	.	64f 64A/	.	.	.	.	.	64BB/	.	.	.	.	.	.	.	.	.	.	.	.	.	.	.	.	.	.	.	.
.	.	.	.	64F/	.	64c/	.	64f 64A/	.	.	.	.	.	64BB/	.	.	.	.	.	.	.	.	.	.	.	.	.	.	.	.	.	.	.	.
.	.	.	.	64F/	.	64c/	.	64f 64A/	.	.	.	.	.	64BB/	.	.	.	.	.	.	.	.	.	.	.	.	.	.	.	.	.	.	.	.
16EE/K	.	16EE/K	.	64F/	.	64c/	.	64f 64A/	.	.	.	.	.	64BB/	.	.	.	.	.	.	.	.	.	16EE/K	16EE\K	.	.	.	.	.	.	.	.	.
.	.	.	.	64F/	.	64c/	.	64f 64A/	.	.	.	.	.	64BB/	.	.	.	.	.	.	.	.	.	.	.	.	.	.	.	.	.	.	.	.
.	.	.	.	64F/	.	64c/	.	64f 64A/	.	.	.	.	.	64BB/	.	.	.	.	.	.	.	.	.	.	.	.	.	.	.	.	.	.	.	.
.	.	.	.	64F/	.	64c/	.	64f 64A/	.	.	.	.	.	64BB/	.	.	.	.	.	.	.	.	.	.	.	.	.	.	.	.	.	.	.	.
[8FFn/J	.	[8FFn/J	.	64F/	.	64c/	.	64f 64A/	.	.	.	.	.	64BB/	.	.	.	.	.	.	.	.	.	[8FFn/J	[8FF\J	.	.	.	.	.	.	.	.	.
.	.	.	.	64F/	.	64c/	.	64f 64A/	.	.	.	.	.	64BB/	.	.	.	.	.	.	.	.	.	.	.	.	.	.	.	.	.	.	.	.
.	.	.	.	64F/	.	64c/	.	64f 64A/	.	.	.	.	.	64BB/	.	.	.	.	.	.	.	.	.	.	.	.	.	.	.	.	.	.	.	.
.	.	.	.	64F/	.	64c/	.	64f 64A/	.	.	.	.	.	64BB/	.	.	.	.	.	.	.	.	.	.	.	.	.	.	.	.	.	.	.	.
.	.	.	.	64F/	.	64c/	.	64f 64A/	.	.	.	.	.	64BB/	.	.	.	.	.	.	.	.	.	.	.	.	.	.	.	.	.	.	.	.
.	.	.	.	64F/	.	64c/	.	64f 64A/	.	.	.	.	.	64BB/	.	.	.	.	.	.	.	.	.	.	.	.	.	.	.	.	.	.	.	.
.	.	.	.	64F/	.	64c/	.	64f 64A/	.	.	.	.	.	64BB/	.	.	.	.	.	.	.	.	.	.	.	.	.	.	.	.	.	.	.	.
.	.	.	.	64F/JJJJ	.	64c/JJJJ	.	64fJJJJ 64A/	.	.	.	.	.	64BB/JJJJ	.	.	.	.	.	.	.	.	.	.	.	.	.	.	.	.	.	.	.	.
8.FF/L]	.	8.FF/L]	.	64E/LLLL	.	64c/LLLL	.	64eLLLL 64A/	.	.	.	.	.	4r	]	.	.	.	.	[4.c [4.E/	.	[4.e [4.A/	]	8.FF/L]	8.FF\L]	.	.	.	.	.	.	.	.	.
.	.	.	.	64E/	.	64c/	.	64e 64A/	.	.	.	.	.	.	.	.	.	.	.	.	.	.	.	.	.	.	.	.	.	.	.	.	.	.
.	.	.	.	64E/	.	64c/	.	64e 64A/	.	.	.	.	.	.	.	.	.	.	.	.	.	.	.	.	.	.	.	.	.	.	.	.	.	.
.	.	.	.	64E/	.	64c/	.	64e 64A/	.	.	.	.	.	.	.	.	.	.	.	.	.	.	.	.	.	.	.	.	.	.	.	.	.	.
.	.	.	.	64E/	.	64c/	.	64e 64A/	.	.	.	.	.	.	.	.	.	.	.	.	.	.	.	.	.	.	.	.	.	.	.	.	.	.
.	.	.	.	64E/	.	64c/	.	64e 64A/	.	.	.	.	.	.	.	.	.	.	.	.	.	.	.	.	.	.	.	.	.	.	.	.	.	.
.	.	.	.	64E/	.	64c/	.	64e 64A/	.	.	.	.	.	.	.	.	.	.	.	.	.	.	.	.	.	.	.	.	.	.	.	.	.	.
.	.	.	.	64E/	.	64c/	.	64e 64A/	.	.	.	.	.	.	.	.	.	.	.	.	.	.	.	.	.	.	.	.	.	.	.	.	.	.
.	.	.	.	64E/	.	64c/	.	64e 64A/	.	.	.	.	.	.	.	.	.	.	.	.	.	.	.	.	.	.	.	.	.	.	.	.	.	.
.	.	.	.	64E/	.	64c/	.	64e 64A/	.	.	.	.	.	.	.	.	.	.	.	.	.	.	.	.	.	.	.	.	.	.	.	.	.	.
.	.	.	.	64E/	.	64c/	.	64e 64A/	.	.	.	.	.	.	.	.	.	.	.	.	.	.	.	.	.	.	.	.	.	.	.	.	.	.
.	.	.	.	64E/	.	64c/	.	64e 64A/	.	.	.	.	.	.	.	.	.	.	.	.	.	.	.	.	.	.	.	.	.	.	.	.	.	.
16GG/K	.	16GG/K	.	64E/	.	64c/	.	64e 64A/	.	.	.	.	.	.	.	.	.	.	.	.	.	.	.	16GG/K	16GG\K	.	.	.	.	.	.	.	.	.
.	.	.	.	64E/	.	64c/	.	64e 64A/	.	.	.	.	.	.	.	.	.	.	.	.	.	.	.	.	.	.	.	.	.	.	.	.	.	.
.	.	.	.	64E/	.	64c/	.	64e 64A/	.	.	.	.	.	.	.	.	.	.	.	.	.	.	.	.	.	.	.	.	.	.	.	.	.	.
.	.	.	.	64E/	.	64c/	.	64e 64A/	.	.	.	.	.	.	.	.	.	.	.	.	.	.	.	.	.	.	.	.	.	.	.	.	.	.
[8AA/J	]]	[>8AA/J	]]	64E/	.	64c/	.	64e 64A/	.	.	.	.	.	8r	.	.	.	.	.	.	.	.	.	8AA/J	8AA\J	.	.	.	.	.	.	.	.	.
.	.	.	.	64E/	.	64c/	.	64e 64A/	.	.	.	.	.	.	.	.	.	.	.	.	.	.	.	.	.	.	.	.	.	.	.	.	.	.
.	.	.	.	64E/	.	64c/	.	64e 64A/	.	.	.	.	.	.	.	.	.	.	.	.	.	.	.	.	.	.	.	.	.	.	.	.	.	.
.	.	.	.	64E/	.	64c/	.	64e 64A/	.	.	.	.	.	.	.	.	.	.	.	.	.	.	.	.	.	.	.	.	.	.	.	.	.	.
.	.	.	.	64E/	.	64c/	.	64e 64A/	.	.	.	.	.	.	.	.	.	.	.	.	.	.	.	.	.	.	.	.	.	.	.	.	.	.
.	.	.	.	64E/	.	64c/	.	64e 64A/	.	.	.	.	.	.	.	.	.	.	.	.	.	.	.	.	.	.	.	.	.	.	.	.	.	.
.	.	.	.	64E/	.	64c/	.	64e 64A/	.	.	.	.	.	.	.	.	.	.	.	.	.	.	.	.	.	.	.	.	.	.	.	.	.	.
.	.	.	.	64E/JJJJ	]]	64c/JJJJ	]]	64eJJJJ 64A/	]]	.	.	.	.	.	.	.	.	.	.	.	.	.	.	.	.	]	.	.	.	.	.	.	.	.
!!pagebreak:original
=29	=29	=29	=29	=29	=29	=29	=29	=29	=29	=29	=29	=29	=29	=29	=29	=29	=29	=29	=29	=29	=29	=29	=29	=29	=29	=29	=29	=29	=29	=29	=29	=29	=29	=29
*	*	*	*	*	*	*	*	*	*	*	*	*	*	*	*	*	*	*	*	*^	*	*^	*	*	*	*	*^	*	*	*	*	*	*	*
!	!LO:DY:rj	!	!LO:DY:rj	!	!LO:DY:rj	!	!LO:DY:rj	!	!LO:DY:rj	!	!	!	!	!	!	!	!	!	!	!	!	!	!	!	!	!	!	!LO:DY:rj	!	!	!LO:DY:rj	!	!LO:DY:rj	!	!	!	!
8.AA/L]	pp	8.AA/L]	pp	64E/LLLL	pp <	64c/LLLL	pp <	64eLLLL 64A/	pp <	2.r	.	.	.	4r	.	2.ryy	.	2.ryy	.	8c/]	8E\]	.	8e/]	8A\]	.	8.AA/L	8.AA\L	pp	4.A/	4.E\	p <	4.e 4.c/	p <	2.ryy	.	2.ryy	.
.	.	.	.	64E/	.	64c/	.	64e 64A/	.	.	.	.	.	.	.	.	.	.	.	.	.	.	.	.	.	.	.	.	.	.	.	.	.	.	.	.	.
.	.	.	.	64E/	.	64c/	.	64e 64A/	.	.	.	.	.	.	.	.	.	.	.	.	.	.	.	.	.	.	.	.	.	.	.	.	.	.	.	.	.
.	.	.	.	64E/	.	64c/	.	64e 64A/	.	.	.	.	.	.	.	.	.	.	.	.	.	.	.	.	.	.	.	.	.	.	.	.	.	.	.	.	.
.	.	.	.	64E/	.	64c/	.	64e 64A/	.	.	.	.	.	.	.	.	.	.	.	.	.	.	.	.	.	.	.	.	.	.	.	.	.	.	.	.	.
.	.	.	.	64E/	.	64c/	.	64e 64A/	.	.	.	.	.	.	.	.	.	.	.	.	.	.	.	.	.	.	.	.	.	.	.	.	.	.	.	.	.
.	.	.	.	64E/	.	64c/	.	64e 64A/	.	.	.	.	.	.	.	.	.	.	.	.	.	.	.	.	.	.	.	.	.	.	.	.	.	.	.	.	.
.	.	.	.	64E/	.	64c/	.	64e 64A/	.	.	.	.	.	.	.	.	.	.	.	.	.	.	.	.	.	.	.	.	.	.	.	.	.	.	.	.	.
.	.	.	.	64E/	.	64c/	.	64e 64A/	.	.	.	.	.	.	.	.	.	.	.	8r	8ryy	.	8r	8ryy	.	.	.	.	.	.	.	.	.	.	.	.	.
.	.	.	.	64E/	.	64c/	.	64e 64A/	.	.	.	.	.	.	.	.	.	.	.	.	.	.	.	.	.	.	.	.	.	.	.	.	.	.	.	.	.
.	.	.	.	64E/	.	64c/	.	64e 64A/	.	.	.	.	.	.	.	.	.	.	.	.	.	.	.	.	.	.	.	.	.	.	.	.	.	.	.	.	.
.	.	.	.	64E/	.	64c/	.	64e 64A/	.	.	.	.	.	.	.	.	.	.	.	.	.	.	.	.	.	.	.	.	.	.	.	.	.	.	.	.	.
16GG/K	.	16GG/K	.	64E/	.	64c/	.	64e 64A/	.	.	.	.	.	.	.	.	.	.	.	.	.	.	.	.	.	16GG/K	16GG\K	<	.	.	.	.	.	.	.	.	.
.	.	.	.	64E/	.	64c/	.	64e 64A/	.	.	.	.	.	.	.	.	.	.	.	.	.	.	.	.	.	.	.	.	.	.	.	.	.	.	.	.	.
.	.	.	.	64E/	.	64c/	.	64e 64A/	.	.	.	.	.	.	.	.	.	.	.	.	.	.	.	.	.	.	.	.	.	.	.	.	.	.	.	.	.
.	.	.	.	64E/	.	64c/	.	64e 64A/	.	.	.	.	.	.	.	.	.	.	.	.	.	.	.	.	.	.	.	.	.	.	.	.	.	.	.	.	.
[8FFn/J	.	[8FFn/J	.	64E/	.	64c/	.	64e 64A/	.	.	.	.	.	8r	.	.	.	.	.	8r	8ryy	.	8r	8ryy	.	[8FFn/J	[8FF\J	.	.	.	.	.	.	.	.	.	.
.	.	.	.	64E/	.	64c/	.	64e 64A/	.	.	.	.	.	.	.	.	.	.	.	.	.	.	.	.	.	.	.	.	.	.	.	.	.	.	.	.	.
.	.	.	.	64E/	.	64c/	.	64e 64A/	.	.	.	.	.	.	.	.	.	.	.	.	.	.	.	.	.	.	.	.	.	.	.	.	.	.	.	.	.
.	.	.	.	64E/	.	64c/	.	64e 64A/	.	.	.	.	.	.	.	.	.	.	.	.	.	.	.	.	.	.	.	.	.	.	.	.	.	.	.	.	.
.	.	.	.	64E/	.	64c/	.	64e 64A/	.	.	.	.	.	.	.	.	.	.	.	.	.	.	.	.	.	.	.	.	.	.	.	.	.	.	.	.	.
.	.	.	.	64E/	.	64c/	.	64e 64A/	.	.	.	.	.	.	.	.	.	.	.	.	.	.	.	.	.	.	.	.	.	.	.	.	.	.	.	.	.
.	.	.	.	64E/	.	64c/	.	64e 64A/	.	.	.	.	.	.	.	.	.	.	.	.	.	.	.	.	.	.	.	.	.	.	.	.	.	.	.	.	.
.	.	.	.	64E/JJJJ	.	64c/JJJJ	.	64eJJJJ 64A/	.	.	.	.	.	.	.	.	.	.	.	.	.	.	.	.	.	.	.	.	.	.	.	.	[[	.	.	.	.
!	!	!	!	!	!	!	!	!	!	!	!	!	!	!	!LO:DY:rj	!	!	!	!	!	!	!	!	!	!	!	!	!	!	!	!	!	!	!	!	!	!
8.FF/L]	.	8.FF/L]	.	64Fn/LLLL	.	64c/LLLL	.	64fnLLLL 64A/	.	.	.	.	.	64BB/LLLL	pp <	.	.	.	.	4r	4ryy	.	4r	4ryy	.	8.FF/L]	8.FF\L]	.	[4.A/	[4.F\	sf	[4.fn [4.c/	sf	.	.	.	.
.	.	.	.	64F/	.	64c/	.	64f 64A/	.	.	.	.	.	64BB/	.	.	.	.	.	.	.	.	.	.	.	.	.	.	.	.	.	.	.	.	.	.	.
.	.	.	.	64F/	.	64c/	.	64f 64A/	.	.	.	.	.	64BB/	.	.	.	.	.	.	.	.	.	.	.	.	.	.	.	.	.	.	.	.	.	.	.
.	.	.	.	64F/	.	64c/	.	64f 64A/	.	.	.	.	.	64BB/	.	.	.	.	.	.	.	.	.	.	.	.	.	.	.	.	.	.	.	.	.	.	.
.	.	.	.	64F/	.	64c/	.	64f 64A/	.	.	.	.	.	64BB/	.	.	.	.	.	.	.	.	.	.	.	.	.	.	.	.	.	.	.	.	.	.	.
.	.	.	.	64F/	.	64c/	.	64f 64A/	.	.	.	.	.	64BB/	.	.	.	.	.	.	.	.	.	.	.	.	.	.	.	.	.	.	.	.	.	.	.
.	.	.	.	64F/	.	64c/	.	64f 64A/	.	.	.	.	.	64BB/	.	.	.	.	.	.	.	.	.	.	.	.	.	.	.	.	.	.	.	.	.	.	.
.	.	.	.	64F/	.	64c/	.	64f 64A/	.	.	.	.	.	64BB/	.	.	.	.	.	.	.	.	.	.	.	.	.	.	.	.	.	.	.	.	.	.	.
.	.	.	.	64F/	.	64c/	.	64f 64A/	.	.	.	.	.	64BB/	.	.	.	.	.	.	.	.	.	.	.	.	.	.	.	.	.	.	.	.	.	.	.
.	.	.	.	64F/	.	64c/	.	64f 64A/	.	.	.	.	.	64BB/	.	.	.	.	.	.	.	.	.	.	.	.	.	.	.	.	.	.	.	.	.	.	.
.	.	.	.	64F/	.	64c/	.	64f 64A/	.	.	.	.	.	64BB/	.	.	.	.	.	.	.	.	.	.	.	.	.	.	.	.	.	.	.	.	.	.	.
.	.	.	.	64F/	.	64c/	.	64f 64A/	.	.	.	.	.	64BB/	.	.	.	.	.	.	.	.	.	.	.	.	.	.	.	.	.	.	.	.	.	.	.
16EE/K	.	16EE/K	.	64F/	.	64c/	.	64f 64A/	.	.	.	.	.	64BB/	.	.	.	.	.	.	.	.	.	.	.	16EE/K	16EE\K	.	.	.	.	.	.	.	.	.	.
.	.	.	.	64F/	.	64c/	.	64f 64A/	.	.	.	.	.	64BB/	.	.	.	.	.	.	.	.	.	.	.	.	.	.	.	.	.	.	.	.	.	.	.
.	.	.	.	64F/	.	64c/	.	64f 64A/	.	.	.	.	.	64BB/	.	.	.	.	.	.	.	.	.	.	.	.	.	.	.	.	.	.	.	.	.	.	.
.	.	.	.	64F/	.	64c/	.	64f 64A/	.	.	.	.	.	64BB/	.	.	.	.	.	.	.	.	.	.	.	.	.	.	.	.	.	.	.	.	.	.	.
[8D/J	.	[8DD/J	.	64F/	.	64c/	.	64f 64A/	.	.	.	.	.	64BB/	.	.	.	.	.	8r	8ryy	.	8r	8ryy	.	8DD/J	8DD\J	.	.	.	.	.	.	.	.	.	.
.	.	.	.	64F/	.	64c/	.	64f 64A/	.	.	.	.	.	64BB/	.	.	.	.	.	.	.	.	.	.	.	.	.	.	.	.	.	.	.	.	.	.	.
.	.	.	.	64F/	.	64c/	.	64f 64A/	.	.	.	.	.	64BB/	.	.	.	.	.	.	.	.	.	.	.	.	.	.	.	.	.	.	.	.	.	.	.
.	.	.	.	64F/	.	64c/	.	64f 64A/	.	.	.	.	.	64BB/	.	.	.	.	.	.	.	.	.	.	.	.	.	.	.	.	.	.	.	.	.	.	.
.	.	.	.	64F/	.	64c/	.	64f 64A/	.	.	.	.	.	64BB/	.	.	.	.	.	.	.	.	.	.	.	.	.	.	.	.	.	.	.	.	.	.	.
.	.	.	.	64F/	.	64c/	.	64f 64A/	.	.	.	.	.	64BB/	.	.	.	.	.	.	.	.	.	.	.	.	.	.	.	.	.	.	.	.	.	.	.
.	.	.	.	64F/	.	64c/	.	64f 64A/	.	.	.	.	.	64BB/	.	.	.	.	.	.	.	.	.	.	.	.	.	.	.	.	.	.	.	.	.	.	.
.	.	.	.	64F/JJJJ	[[	64c/JJJJ	[[	64fJJJJ 64A/	[[	.	.	.	.	64BB/JJJJ	[[	.	.	.	.	.	.	.	.	.	.	.	.	[	.	.	[[	.	.	.	.	.	.
*	*	*	*	*	*	*	*	*	*	*	*	*	*	*	*	*	*	*	*	*v	*v	*	*	*	*	*	*	*	*	*	*	*	*	*	*	*	*
*	*	*	*	*	*	*	*	*	*	*	*	*	*	*	*	*	*	*	*	*	*	*v	*v	*	*	*	*	*	*	*	*	*	*	*	*	*
=30	=30	=30	=30	=30	=30	=30	=30	=30	=30	=30	=30	=30	=30	=30	=30	=30	=30	=30	=30	=30	=30	=30	=30	=30	=30	=30	=30	=30	=30	=30	=30	=30	=30	=30	=30
*	*	*	*	*	*	*	*	*tremolo	*	*	*	*	*	*	*	*	*	*	*	*	*	*	*	*	*	*	*	*	*	*	*	*	*	*	*
!	!	!	!	!	!	!	!	!	!	!	!	!	!	!	!	!	!	!	!	!	!	!	!	!	!	!	!	!	!LO:HP:a	!	!	!	!	!	!
8.D/L]	.	8.DD/L]	.	64Fn/LLLL	>	64c/LLLL	>	64fnLLLL 64A/	>	4r	.	.	.	64BB/LLLL	>	2.ryy	.	2.ryy	.	2.ryy	.	2.ryy	.	8.DD/L	8.DD\L	>	4.A]/ 4.F]	4.ryy	>	4.f] 4.c/]	>	2.ryy	.	2.ryy	.
.	.	.	.	64F/	.	64c/	.	64f 64A/	.	.	.	.	.	64BB/	.	.	.	.	.	.	.	.	.	.	.	.	.	.	.	.	.	.	.	.	.
.	.	.	.	64F/	.	64c/	.	64f 64A/	.	.	.	.	.	64BB/	.	.	.	.	.	.	.	.	.	.	.	.	.	.	.	.	.	.	.	.	.
.	.	.	.	64F/	.	64c/	.	64f 64A/	.	.	.	.	.	64BB/	.	.	.	.	.	.	.	.	.	.	.	.	.	.	.	.	.	.	.	.	.
.	.	.	.	64F/	.	64c/	.	64f 64A/	.	.	.	.	.	64BB/	.	.	.	.	.	.	.	.	.	.	.	.	.	.	.	.	.	.	.	.	.
.	.	.	.	64F/	.	64c/	.	64f 64A/	.	.	.	.	.	64BB/	.	.	.	.	.	.	.	.	.	.	.	.	.	.	.	.	.	.	.	.	.
.	.	.	.	64F/	.	64c/	.	64f 64A/	.	.	.	.	.	64BB/	.	.	.	.	.	.	.	.	.	.	.	.	.	.	.	.	.	.	.	.	.
.	.	.	.	64F/	.	64c/	.	64f 64A/	.	.	.	.	.	64BB/	.	.	.	.	.	.	.	.	.	.	.	.	.	.	.	.	.	.	.	.	.
.	.	.	.	64F/	.	64c/	.	64f 64A/	.	.	.	.	.	64BB/	.	.	.	.	.	.	.	.	.	.	.	.	.	.	.	.	.	.	.	.	.
.	.	.	.	64F/	.	64c/	.	64f 64A/	.	.	.	.	.	64BB/	.	.	.	.	.	.	.	.	.	.	.	.	.	.	.	.	.	.	.	.	.
.	.	.	.	64F/	.	64c/	.	64f 64A/	.	.	.	.	.	64BB/	.	.	.	.	.	.	.	.	.	.	.	.	.	.	.	.	.	.	.	.	.
.	.	.	.	64F/	.	64c/	.	64f 64A/	.	.	.	.	.	64BB/	.	.	.	.	.	.	.	.	.	.	.	.	.	.	.	.	.	.	.	.	.
16EE/K	.	16EE/K	.	64F/	.	64c/	.	64f 64A/	.	.	.	.	.	64BB/	.	.	.	.	.	.	.	.	.	16EE/K	16EE\K	.	.	.	.	.	.	.	.	.	.
.	.	.	.	64F/	.	64c/	.	64f 64A/	.	.	.	.	.	64BB/	.	.	.	.	.	.	.	.	.	.	.	.	.	.	.	.	.	.	.	.	.
.	.	.	.	64F/	.	64c/	.	64f 64A/	.	.	.	.	.	64BB/	.	.	.	.	.	.	.	.	.	.	.	.	.	.	.	.	.	.	.	.	.
.	.	.	.	64F/	.	64c/	.	64f 64A/	.	.	.	.	.	64BB/	.	.	.	.	.	.	.	.	.	.	.	.	.	.	.	.	.	.	.	.	.
[8FFn/J	.	[8FFn/J	.	64F/	.	64c/	.	64f 64A/	.	8r	.	.	.	64BB/	.	.	.	.	.	.	.	.	.	[8FFn/J	[8FF\J	.	.	.	.	.	.	.	.	.	.
.	.	.	.	64F/	.	64c/	.	64f 64A/	.	.	.	.	.	64BB/	.	.	.	.	.	.	.	.	.	.	.	.	.	.	.	.	.	.	.	.	.
.	.	.	.	64F/	.	64c/	.	64f 64A/	.	.	.	.	.	64BB/	.	.	.	.	.	.	.	.	.	.	.	.	.	.	.	.	.	.	.	.	.
.	.	.	.	64F/	.	64c/	.	64f 64A/	.	.	.	.	.	64BB/	.	.	.	.	.	.	.	.	.	.	.	.	.	.	.	.	.	.	.	.	.
.	.	.	.	64F/	.	64c/	.	64f 64A/	.	.	.	.	.	64BB/	.	.	.	.	.	.	.	.	.	.	.	.	.	.	.	.	.	.	.	.	.
.	.	.	.	64F/	.	64c/	.	64f 64A/	.	.	.	.	.	64BB/	.	.	.	.	.	.	.	.	.	.	.	.	.	.	.	.	.	.	.	.	.
.	.	.	.	64F/	.	64c/	.	64f 64A/	.	.	.	.	.	64BB/	.	.	.	.	.	.	.	.	.	.	.	.	.	.	.	.	.	.	.	.	.
.	.	.	.	64F/JJJJ	.	64c/JJJJ	.	64fJJJJ 64A/	.	.	.	.	.	64BB/JJJJ	.	.	.	.	.	.	.	.	.	.	.	.	.	.	.	.	.	.	.	.	.
8.FF/L]	.	8.FF/L]	.	64E/LLLL	.	64c/LLLL	]	64eLLLL 64A/	]	4r	.	.	.	4r	]	.	.	.	.	.	.	.	.	8.FF/L]	8.FF\L]	.	4.A/	4.E\	.	4.e 4.c/	]]	.	.	.	.
.	.	.	.	64E/	.	64c/	.	64e 64A/	.	.	.	.	.	.	.	.	.	.	.	.	.	.	.	.	.	.	.	.	.	.	.	.	.	.	.
.	.	.	.	64E/	.	64c/	.	64e 64A/	.	.	.	.	.	.	.	.	.	.	.	.	.	.	.	.	.	.	.	.	.	.	.	.	.	.	.
.	.	.	.	64E/	.	64c/	.	64e 64A/	.	.	.	.	.	.	.	.	.	.	.	.	.	.	.	.	.	.	.	.	.	.	.	.	.	.	.
.	.	.	.	64E/	.	64c/	.	64e 64A/	.	.	.	.	.	.	.	.	.	.	.	.	.	.	.	.	.	.	.	.	.	.	.	.	.	.	.
.	.	.	.	64E/	.	64c/	.	64e 64A/	.	.	.	.	.	.	.	.	.	.	.	.	.	.	.	.	.	.	.	.	.	.	.	.	.	.	.
.	.	.	.	64E/	.	64c/	.	64e 64A/	.	.	.	.	.	.	.	.	.	.	.	.	.	.	.	.	.	.	.	.	.	.	.	.	.	.	.
.	.	.	.	64E/	.	64c/	.	64e 64A/	.	.	.	.	.	.	.	.	.	.	.	.	.	.	.	.	.	.	.	.	.	.	.	.	.	.	.
.	.	.	.	64E/	.	64c/	.	64e 64A/	.	.	.	.	.	.	.	.	.	.	.	.	.	.	.	.	.	.	.	.	.	.	.	.	.	.	.
.	.	.	.	64E/	.	64c/	.	64e 64A/	.	.	.	.	.	.	.	.	.	.	.	.	.	.	.	.	.	.	.	.	.	.	.	.	.	.	.
.	.	.	.	64E/	.	64c/	.	64e 64A/	.	.	.	.	.	.	.	.	.	.	.	.	.	.	.	.	.	.	.	.	.	.	.	.	.	.	.
.	.	.	.	64E/	.	64c/	.	64e 64A/	.	.	.	.	.	.	.	.	.	.	.	.	.	.	.	.	.	.	.	.	.	.	.	.	.	.	.
16GG/K	.	16GG/K	.	64E/	.	64c/	.	64e 64A/	.	.	.	.	.	.	.	.	.	.	.	.	.	.	.	16GG/K	16GG\K	.	.	.	.	.	.	.	.	.	.
.	.	.	.	64E/	.	64c/	.	64e 64A/	.	.	.	.	.	.	.	.	.	.	.	.	.	.	.	.	.	.	.	.	.	.	.	.	.	.	.
.	.	.	.	64E/	]	64c/	.	64e 64A/	.	.	.	.	.	.	.	.	.	.	.	.	.	.	.	.	.	.	.	.	.	.	.	.	.	.	.
.	.	.	.	64E/	.	64c/	.	64e 64A/	.	.	.	.	.	.	.	.	.	.	.	.	.	.	.	.	.	.	.	.	.	.	.	.	.	.	.
8AA/J	.	8AA/J	.	64E/	.	64c/	.	64e 64A/	.	8e/	za-	sie	.	8r	.	.	.	.	.	.	.	.	.	8AA/J	8AA\J	.	.	.	.	.	.	.	.	.	.
.	.	.	.	64E/	.	64c/	.	64e 64A/	.	.	.	.	.	.	.	.	.	.	.	.	.	.	.	.	.	.	.	.	.	.	.	.	.	.	.
.	.	.	.	64E/	.	64c/	.	64e 64A/	.	.	.	.	.	.	.	.	.	.	.	.	.	.	.	.	.	.	.	.	.	.	.	.	.	.	.
.	.	.	.	64E/	.	64c/	.	64e 64A/	.	.	.	.	.	.	.	.	.	.	.	.	.	.	.	.	.	.	.	.	.	.	.	.	.	.	.
.	.	.	.	64E/	.	64c/	.	64e 64A/	.	.	.	.	.	.	.	.	.	.	.	.	.	.	.	.	.	.	.	.	.	.	.	.	.	.	.
.	.	.	.	64E/	.	64c/	.	64e 64A/	.	.	.	.	.	.	.	.	.	.	.	.	.	.	.	.	.	.	.	.	.	.	.	.	.	.	.
.	.	.	.	64E/	.	64c/	.	64e 64A/	.	.	.	.	.	.	.	.	.	.	.	.	.	.	.	.	.	.	.	.	.	.	.	.	.	.	.
.	.	.	.	64E/JJJJ	.	64c/JJJJ	.	64eJJJJ 64A/	.	.	.	.	.	.	.	.	.	.	.	.	.	.	.	.	.	]	.	.	]	.	.	.	.	.	.
*	*	*	*	*	*	*	*	*	*	*	*	*	*	*	*	*	*	*	*	*	*	*	*	*	*	*	*v	*v	*	*	*	*	*	*	*
*	*	*	*	*	*	*	*	*	*	*	*	*	*	*	*	*	*	*	*	*	*	*	*	*	*	*	*	*	*	*	*	*	*	*
=31	=31	=31	=31	=31	=31	=31	=31	=31	=31	=31	=31	=31	=31	=31	=31	=31	=31	=31	=31	=31	=31	=31	=31	=31	=31	=31	=31	=31	=31	=31	=31	=31	=31	=31
!	!LO:DY:rj	!	!LO:DY:rj	!	!LO:DY:rj	!	!LO:DY:rj	!	!LO:DY:rj	!	!	!	!	!	!	!	!	!	!	!	!	!	!	!	!	!LO:DY:rj	!	!	!	!	!	!	!	!
4BB/yy	p	4BB/	p	8E/L	p	8B/L	p	8eL 8G/	p	[4.g/	-nad-	hat-	.	2.r	.	2.ryy	.	2.ryy	.	4r	.	4r	.	2.BB/	2.BB\	p	16r	.	2.ryy	.	2.ryy	.	16r	.
!	!	!	!	!	!	!	!	!	!	!	!	!	!	!	!	!	!	!	!	!	!	!	!	!	!	!	!	!LO:HP:a	!	!	!	!	!	!LO:DY:rj
!	!	!	!	!	!	!	!	!	!	!	!	!	!	!	!	!	!	!	!	!	!	!	!	!	!	!	!	!LO:DY:rj	!	!	!	!	!	!
.	.	.	.	.	<	.	<	.	<	.	.	.	.	.	.	.	.	.	.	.	.	.	.	.	.	.	16BLL 16G'\	pp <	.	.	.	.	16e'\LL	pp <
.	.	.	.	8E/	.	8B/	.	8e 8G/	.	.	.	.	.	.	.	.	.	.	.	.	.	.	.	.	.	.	16e 16B'\	.	.	.	.	.	16g'\	.
.	.	.	.	.	.	.	.	.	.	.	.	.	.	.	.	.	.	.	.	.	.	.	.	.	.	.	16g 16e'\	.	.	.	.	.	16b'\	.
8ryy	.	8r	.	8E/J	.	8B/J	.	8eJ 8G/	.	.	.	.	.	.	.	.	.	.	.	8r	.	8r	.	.	.	.	16b 16g'\	.	.	.	.	.	16ee'\	.
.	.	.	.	.	.	.	.	.	.	.	.	.	.	.	.	.	.	.	.	.	.	.	.	.	.	.	16eeJJ 16b'\	.	.	.	.	.	16gg'\JJ	.
!	!	!	!	!	!	!	!	!	!	!	!	!	!	!	!	!	!	!	!	!LO:TX:a:rj:t=4o Solo	!LO:DY:rj	!LO:TX:a:rj:t=2o Solo	!LO:DY:rj	!	!	!	!	!	!	!	!	!	!	!
4ryy	.	4r	.	8E/L	.	8B/L	.	8eL 8G/	.	8g/]	.	.	.	.	.	.	.	.	.	4BX/	p	4BX/	p	.	.	<	16ggLL 16ee'\	[	.	.	.	.	16bb'\LL	.
!	!	!	!	!	!	!	!	!	!	!	!	!	!	!	!	!	!	!	!	!	!	!	!	!	!	!	!	!LO:HP:a	!	!	!	!	!	!
.	.	.	.	.	.	.	.	.	.	.	.	.	.	.	.	.	.	.	.	.	.	.	.	.	.	.	16ee 16b'\	>	.	.	.	.	16gg'\	[ >
.	.	.	.	8E/	.	8B/	.	8e 8G/	.	8a/	-to	-ten	.	.	.	.	.	.	.	.	.	.	.	.	.	.	16b 16g\	.	.	.	.	.	16ee'\	.
.	.	.	.	.	.	.	.	.	.	.	.	.	.	.	.	.	.	.	.	.	.	.	.	.	.	.	16g 16e\	.	.	.	.	.	16b'\	.
!	!	!	!	!	!	!	!	!	!	!	!	!	!	!	!	!	!	!	!	!LO:TX:b:rj:t=con expres	!	!LO:TX:b:rj:t=con expres	!	!	!	!	!	!	!	!	!	!	!	!
8ryy	.	8ryy	.	8E/J	.	8B/J	.	8eJ 8G/	.	8b\	się	.	.	.	.	.	.	.	.	8B/	.	8B/	.	.	.	.	16e 16B\	.	.	.	.	.	16g'\	.
.	.	.	.	.	.	.	.	.	.	.	.	.	.	.	.	.	.	.	.	.	.	.	.	.	.	.	16BJJ 16G\	]]	.	.	.	.	16e'\JJ	]]
=32	=32	=32	=32	=32	=32	=32	=32	=32	=32	=32	=32	=32	=32	=32	=32	=32	=32	=32	=32	=32	=32	=32	=32	=32	=32	=32	=32	=32	=32	=32	=32	=32	=32	=32
!LO:TX:b:t=piz	!	!LO:TX:b:t=piz	!	!	!	!	!	!	!	!	!	!	!	!	!	!	!	!	!	!	!	!	!	!	!	!	!	!	!	!	!	!	!	!
8AA/yy	.	8AA/	.	8E/L	.	8c/L	.	8eL 8G/	.	4.cc\	o-	sich	.	2.r	.	2.ryy	.	2.ryy	.	[4.E/	.	[4.E/	<	2.AA/	2.AA\	.	16r	.	2.ryy	.	2.ryy	.	16r	.
!	!	!	!	!	!	!	!	!	!	!	!	!	!	!	!	!	!	!	!	!	!	!	!	!	!	!	!	!LO:HP:a	!	!	!	!	!	!
.	.	.	.	.	.	.	.	.	.	.	.	.	.	.	.	.	.	.	.	.	.	.	.	.	.	.	16cLL 16G'\	<	.	.	.	.	16e'\LL	<
8ryy	.	8r	.	8E/	.	8c/	.	8e 8G/	.	.	.	.	.	.	.	.	.	.	.	.	.	.	.	.	.	.	16e 16c'\	.	.	.	.	.	16g'\	.
.	.	.	.	.	.	.	.	.	.	.	.	.	.	.	.	.	.	.	.	.	.	.	.	.	.	.	16g 16e'\	.	.	.	.	.	16cc'\	.
8ryy	.	8r	.	8E/J	.	8c/J	.	8eJ 8G/	.	.	.	.	.	.	.	.	.	.	.	.	.	.	.	.	.	.	16cc 16g'\	.	.	.	.	.	16ee'\	.
.	.	.	.	.	.	.	.	.	.	.	.	.	.	.	.	.	.	.	.	.	.	.	.	.	.	.	16eeJJ 16cc'\	.	.	.	.	.	16gg'\JJ	.
4ryy	.	4r	.	8E/L	.	8c/L	.	8eL 8G/	.	4cc\	-ni	.	.	.	.	.	.	.	.	4E/]	.	4E/]	.	.	.	.	16ggLL 16ee'\	[	.	.	.	.	16ccc'\LL	[
!	!	!	!	!	!	!	!	!	!	!	!	!	!	!	!	!	!	!	!	!	!	!	!	!	!	!	!	!LO:HP:a	!	!	!	!	!	!
.	.	.	.	.	.	.	.	.	.	.	.	.	.	.	.	.	.	.	.	.	.	.	.	.	.	.	16ee 16cc'\	>	.	.	.	.	16gg'\	>
.	.	.	.	8E/	.	8c/	.	8e 8G/	.	.	.	.	.	.	.	.	.	.	.	.	.	.	.	.	.	.	16cc 16g'\	.	.	.	.	.	16ee'\	.
.	.	.	.	.	.	.	.	.	.	.	.	.	.	.	.	.	.	.	.	.	.	.	.	.	.	.	16g 16e'\	.	.	.	.	.	16cc'\	.
8ryy	.	8r	.	8E/J	[[	8c/J	[[	8eJ 8G/	[[	8cc\	za-	.	.	.	.	.	.	.	.	8E/	.	8E/	[[	.	.	[	16e 16c'\	.	.	.	.	.	16g'\	.
.	.	.	.	.	.	.	.	.	.	.	.	.	.	.	.	.	.	.	.	.	.	.	.	.	.	.	16cJJ 16G'\	]]	.	.	.	.	16e'\JJ	]]
*	*	*	*	*	*	*	*	*	*	*	*	*	*	*	*	*	*	*	*	*	*	*	*	*v	*v	*	*	*	*	*	*	*	*	*
!!pagebreak:original
=33	=33	=33	=33	=33	=33	=33	=33	=33	=33	=33	=33	=33	=33	=33	=33	=33	=33	=33	=33	=33	=33	=33	=33	=33	=33	=33	=33	=33	=33	=33	=33	=33	=33
8FF#/yy	.	8FF#/	.	8E/L	.	8c/L	.	8eL 8A/	.	[4.dd\	-nad-	viel	.	2.r	.	2.r	.	2.r	.	4.A/	.	4.A/	.	2.FF#/	>	16r	.	2.ryy	.	2.ryy	.	16r	.
.	.	.	.	.	.	.	.	.	.	.	.	.	.	.	.	.	.	.	.	.	.	.	.	.	.	16cLL 16A'\	<	.	.	.	.	16e'\LL	<
8ryy	.	8r	.	8E/	>	8c/	>	8e 8A/	>	.	.	.	.	.	.	.	.	.	.	.	.	.	.	.	.	16e 16c'\	.	.	.	.	.	16a'\	.
.	.	.	.	.	.	.	.	.	.	.	.	.	.	.	.	.	.	.	.	.	.	.	.	.	.	16a 16e'\	.	.	.	.	.	16cc'\	.
8ryy	.	8r	.	8E/J	.	8c/J	.	8eJ 8A/	.	.	.	.	.	.	.	.	.	.	.	.	.	.	.	.	.	16cc 16a'\	.	.	.	.	.	16ee'\	.
.	.	.	.	.	.	.	.	.	.	.	.	.	.	.	.	.	.	.	.	.	.	.	.	.	.	16eeJJ 16cc'\	.	.	.	.	.	16aa'\JJ	.
4ryy	.	4r	.	8E/L	.	8c/L	.	8eL 8A/	.	8dd\]	.	.	.	.	.	.	.	.	.	4A/	.	4A/	>	.	.	16aaLL 16ee'\	[ >	.	.	.	.	16ccc'\LL	[ >
.	.	.	.	.	.	.	.	.	.	.	.	.	.	.	.	.	.	.	.	.	.	.	.	.	.	16ee 16cc'\	.	.	.	.	.	16aa'\	.
.	.	.	.	8E/	.	8c/	.	8e 8A/	.	8cc\	-to	.	.	.	.	.	.	.	.	.	.	.	.	.	.	16cc 16a'\	.	.	.	.	.	16ee'\	.
.	.	.	.	.	.	.	.	.	.	.	.	.	.	.	.	.	.	.	.	.	.	.	.	.	.	16a 16e'\	]	.	.	.	.	16cc'\	.
8ryy	.	8r	.	8E/J	.	8c/J	.	8eJ 8A/	.	8a/	ko-	zu	.	.	.	.	.	.	.	8A/	.	8A/	.	.	.	16e 16c'\	.	.	.	.	.	16a'\	]
.	.	.	.	.	.	.	.	.	.	.	.	.	.	.	.	.	.	.	.	.	.	.	.	.	.	16cJJ 16A'\	.	.	.	.	.	16e'\JJ	.
=34	=34	=34	=34	=34	=34	=34	=34	=34	=34	=34	=34	=34	=34	=34	=34	=34	=34	=34	=34	=34	=34	=34	=34	=34	=34	=34	=34	=34	=34	=34	=34	=34	=34
8BB/yy	.	8BB/	.	8D#X/L	.	8B/L	.	8d#XL 8A/	.	8g/	-cha-	lieb,	.	2.r	.	2.r	.	2.r	.	[4.D#X/	.	[4.D#X/	]	2.BB;</	.	16r	.	2.ryy	.	2.ryy	.	16r	.
!	!	!	!	!	!	!	!	!	!	!	!	!	!	!	!	!	!	!	!	!	!	!	!	!	!	!	!LO:HP:a	!	!	!	!	!	!
.	.	.	.	.	.	.	.	.	.	.	.	.	.	.	.	.	.	.	.	.	.	.	.	.	.	16BLL 16A'\	<	.	.	.	.	16d'\LL	<
8ryy	.	8r	.	8D#/	.	8B/	.	8d# 8A/	.	8f#/	-li	.	.	.	.	.	.	.	.	.	.	.	.	.	.	16d#X 16B'\	.	.	.	.	.	16f#X'\	.
.	.	.	.	.	.	.	.	.	.	.	.	.	.	.	.	.	.	.	.	.	.	.	.	.	.	16f# 16d#X'\	.	.	.	.	.	16b'\	.
8ryy	.	8r	.	8D#/J	.	8B/J	.	8d#J 8A/	.	16r	.	.	.	.	.	.	.	.	.	.	.	.	.	.	.	16b 16f#'\	.	.	.	.	.	16dd#X'\	.
.	.	.	.	.	.	.	.	.	.	16a/	[[Ko-	.	.	.	.	.	.	.	.	.	.	.	.	.	.	16dd#XJJ 16b'\	.	.	.	.	.	16ff#'\JJ	.
*	*	*	*	*Xtremolo	*	*Xtremolo	*	*Xtremolo	*	*	*	*	*	*	*	*	*	*	*	*	*	*	*	*	*	*	*	*	*	*	*	*	*
8ryy	.	8r	.	8D#/	]	8B/	]	8d# 8A/	]	4cc;\	-cha]]-	zu	.	.	.	.	.	.	.	4D#/]	.	4D#/]	.	.	.	8ff#L 8dd#X'\	[	.	.	.	.	8bb\L	[
!LO:TX:b:rj:t=arco	!	!LO:TX:b:rj:t=arco	!	!	!	!	!	!	!	!	!	!	!	!	!	!	!	!	!	!	!	!	!	!	!	!	!	!	!	!	!	!	!
4BB;</yy	sf	4BB;</	sf	4D#;/	sf	4B;/	sf	4d# 4A;/	sf	.	.	.	.	.	.	.	.	.	.	.	.	.	.	.	]	8bJ 8a\	.	.	.	.	.	8dd#X'\J	.
.	.	.	.	.	.	.	.	.	.	8b\	.	.	.	.	.	.	.	.	.	8r;	.	8r;	.	.	.	8r;	.	.	.	.	.	8r;	.
=35	=35	=35	=35	=35	=35	=35	=35	=35	=35	=35	=35	=35	=35	=35	=35	=35	=35	=35	=35	=35	=35	=35	=35	=35	=35	=35	=35	=35	=35	=35	=35	=35	=35
[2.E\yy	p	[2.E\	p	(>4G/	p	(>4B/	p	(>4e/	p	[2.b\	.	lieb	.	2.r	.	2.r	.	2.r	.	2.ryy	.	2.ryy	.	2.ryy	.	2.ryy	.	2.ryy	.	2.ryy	.	2.ryy	.
.	.	.	.	8A/	.	8c/	.	8f#/	.	.	.	.	.	.	.	.	.	.	.	.	.	.	.	.	.	.	.	.	.	.	.	.	.
.	.	.	.	4G/	.	4B/	.	4e/	.	.	.	.	.	.	.	.	.	.	.	.	.	.	.	.	.	.	.	.	.	.	.	.	.
.	.	.	.	8F#/	.	8B/	.	8d#X/	.	.	.	.	.	.	.	.	.	.	.	.	.	.	.	.	.	.	.	.	.	.	.	.	.
=36	=36	=36	=36	=36	=36	=36	=36	=36	=36	=36	=36	=36	=36	=36	=36	=36	=36	=36	=36	=36	=36	=36	=36	=36	=36	=36	=36	=36	=36	=36	=36	=36	=36
*	*	*	*	*	*	*	*	*	*	*	*	*	*	*	*	*	*	*	*	*^	*	*^	*	*^	*	*	*	*	*	*	*	*	*
4.E\]yy	.	4.E\]	.	4.G/	.	4.B/	.	4.e/	.	4.b\]	.	.	.	2.r	.	2.r	.	2.r	.	4r	4ryy	.	4r	4ryy	.	4r	4ryy	.	2.ryy	.	2.ryy	.	2.ryy	.	2.ryy	.
.	.	.	.	.	.	.	.	.	.	.	.	.	.	.	.	.	.	.	.	8r	8ryy	.	8r	8ryy	.	8r	8ryy	.	.	.	.	.	.	.	.	.
4E\yy	.	4E\	.	4G/	.	4c/	.	4c/	.	8e/	li	.	p	.	.	.	.	.	.	4r	4ryy	.	4r	4ryy	.	4r	4ryy	.	.	.	.	.	.	.	.	.
.	.	.	.	.	.	.	.	.	.	8r	.	.	.	.	.	.	.	.	.	.	.	.	.	.	.	.	.	.	.	.	.	.	.	.	.	.
!	!	!	!	!	!	!	!	!	!	!	!	!	!	!	!	!	!	!	!	!	!	!	!	!	!LO:DY:rj	!	!	!LO:DY:rj	!	!	!	!	!	!	!	!
8GG/yy	.	8GG/	.	8G/)	.	8B/)	.	8dn/)	.	8r	.	.	.	.	.	.	.	.	.	(8BX/	(8G\	.	(8d/	8G\	p	8GG/	8GG\	p	.	.	.	.	.	.	.	.
!!pagebreak:original
=37	=37	=37	=37	=37	=37	=37	=37	=37	=37	=37	=37	=37	=37	=37	=37	=37	=37	=37	=37	=37	=37	=37	=37	=37	=37	=37	=37	=37	=37	=37	=37	=37	=37	=37	=37	=37
*	*	*	*	*	*	*	*	*	*	*	*	*	*	*	*	*	*	*	*	*	*	*	*	*	*	*	*	*	*	*	*^	*	*	*	*	*
!	!	!	!	!	!	!	!	!	!	!	!	!	!	!	!	!	!	!	!	!LO:TX:t=P:problem:brak zakończenia łuków (początek łuku)	!	!	!LO:TX:t=P:problem:brak zakończenia łuku (początek łuku)	!	!	!	!	!	!	!	!	!	!	!	!	!	!
8.C\Lyy	.	8.C\L	.	(4G/	.	4c/	.	4e/	.	4r	.	.	.	4r	.	2.ryy	.	2.ryy	.	8c/)	4E\)	.	4e/)	8G\	.	8.C/L	8.C\L	.	2.ryy	.	4r	4rc	.	2.ryy	.	2.ryy	.
.	.	.	.	.	.	.	.	.	.	.	.	.	.	.	.	.	.	.	.	8r	.	.	.	8rG	.	.	.	.	.	.	.	.	.	.	.	.	.
16BB'\Kyy	.	16BB'\K	.	.	.	.	.	.	.	.	.	.	.	.	.	.	.	.	.	.	.	.	.	.	.	16BB/K	16BB\K	.	.	.	.	.	.	.	.	.	.
!	!	!	!	!	!	!	!	!	!	!	!	!	!	!	!	!	!	!	!	!	!	!	!	!	!	!	!	!	!	!	!	!	!LO:DY:a	!	!	!	!
8AA'\Jyy	.	8AA'\J	.	8A/	.	(8c/	.	(>8e/	.	8e/	mu-	sie	.	8r	.	.	.	.	.	8r	(8E\	.	(8e/	8r	.	8AA/J	8AA\J	.	.	.	(8e/	8r	p	.	.	.	.
*	*	*	*	*	*	*	*	*	*	*	*	*	*	*tremolo	*	*	*	*	*	*	*	*	*	*	*	*	*	*	*	*	*	*	*	*	*	*	*
!	!	!	!	!	!	!	!	!	!LO:HP:t=diminuendo	!	!	!	!	!	!	!	!	!	!	!	!	!	!	!	!	!	!	!	!	!	!	!	!LO:DY:rj	!	!	!	!
8GG'\Lyy	.	8GG'\L	.	4B/)	.	4B/)	.	4d#X/	>	4b\	-sie-	muss-	.	32BB/LLL	pp	.	.	.	.	4r	4D#X\	.	4d#X/	4rG	.	8GG/L	8GG\L	.	.	.	4b/	(4d#X\	p	.	.	.	.
.	.	.	.	.	.	.	.	.	.	.	.	.	.	32BB/	.	.	.	.	.	.	.	.	.	.	.	.	.	.	.	.	.	.	.	.	.	.	.
.	.	.	.	.	.	.	.	.	.	.	.	.	.	32BB/	.	.	.	.	.	.	.	.	.	.	.	.	.	.	.	.	.	.	.	.	.	.	.
.	.	.	.	.	.	.	.	.	.	.	.	.	.	32BB/	.	.	.	.	.	.	.	.	.	.	.	.	.	.	.	.	.	.	.	.	.	.	.
8FF#'\yy	.	8FF#'\	.	.	.	.	.	.	.	.	.	.	.	32BB/	.	.	.	.	.	.	.	.	.	.	.	8FF#/	8FF#\	.	.	.	.	.	.	.	.	.	.
.	.	.	.	.	.	.	.	.	.	.	.	.	.	32BB/	.	.	.	.	.	.	.	.	.	.	.	.	.	.	.	.	.	.	.	.	.	.	.
.	.	.	.	.	.	.	.	.	.	.	.	.	.	32BB/	.	.	.	.	.	.	.	.	.	.	.	.	.	.	.	.	.	.	.	.	.	.	.
.	.	.	.	.	.	.	.	.	.	.	.	.	.	32BB/	.	.	.	.	.	.	.	.	.	.	.	.	.	.	.	.	.	.	.	.	.	.	.
!	!	!	!	!	!	!	!	!	!	!	!	!	!	!	!	!	!	!	!	!	!	!	!	!	!LO:HP:t=diminuendo____	!	!	!	!	!	!	!	!	!	!	!	!
8EE'\Jyy	.	8EE'\J	.	8r	.	(8B/	.	8e/)	.	8g/	-li	-ten	.	32BB/	.	.	.	.	.	8r	8E\)	.	8e/)	8r	>	8EE/J	8EE\J	.	.	.	8g/	8e\)	.	.	.	.	.
.	.	.	.	.	.	.	.	.	.	.	.	.	.	32BB/	.	.	.	.	.	.	.	.	.	.	.	.	.	.	.	.	.	.	.	.	.	.	.
.	.	.	.	.	.	.	.	.	.	.	.	.	.	32BB/	.	.	.	.	.	.	.	.	.	.	.	.	.	.	.	.	.	.	.	.	.	.	.
.	.	.	.	.	.	.	.	.	.	.	.	.	.	32BB/JJJ	.	.	.	.	.	.	.	.	.	.	.	.	.	.	.	.	.	.	.	.	.	.	.
*	*	*	*	*	*	*	*	*	*	*	*	*	*	*	*	*	*	*	*	*	*	*	*v	*v	*	*	*	*	*	*	*	*	*	*	*	*	*
*	*	*	*	*	*	*	*	*	*	*	*	*	*	*Xtremolo	*	*	*	*	*	*	*	*	*	*	*	*	*	*	*	*	*	*	*	*	*	*
=38	=38	=38	=38	=38	=38	=38	=38	=38	=38	=38	=38	=38	=38	=38	=38	=38	=38	=38	=38	=38	=38	=38	=38	=38	=38	=38	=38	=38	=38	=38	=38	=38	=38	=38	=38	=38
*	*	*	*	*	*	*	*	*	*	*	*	*	*	*	*	*	*	*	*	*	*	*	*	*	*	*	*	*^	*	*	*	*	*	*	*	*
*	*	*	*	*	*	*	*	*	*	*	*	*	*	*tremolo	*	*	*	*	*	*	*	*	*	*	*	*	*	*	*	*	*	*	*	*	*	*	*
!	!	!	!	!	!LO:HP:t=dim	!	!LO:HP:t=dim	!	!	!	!	!	!	!	!	!	!	!	!	!	!	!	!	!	!	!	!	!	!	!	!	!	!	!	!	!	!
8.C\Lyy	.	8.C\L	.	(4G/	>	4c/)	>	4e/	.	4e/	um-	bei-	.	8E\	.	2.ryy	.	2.ryy	.	2.ryy	4E'\	.	4e'/	.	8.C/L	8.C\L	.	4r	4ryy	.	4e/)	4r	.	4r	.	4r	.
.	.	.	.	.	.	.	.	.	.	.	.	.	.	8r	.	.	.	.	.	.	.	.	.	.	.	.	.	.	.	.	.	.	.	.	.	.	.
16BB'\Kyy	.	16BB'\K	.	.	.	.	.	.	.	.	.	.	.	.	.	.	.	.	.	.	.	.	.	.	16BB/K	16BB\K	.	.	.	.	.	.	.	.	.	.	.
!	!	!	!	!	!	!	!	!	!	!	!	!	!	!	!	!	!	!	!	!	!	!	!	!	!	!	!	!	!	!LO:DY:rj	!	!	!	!	!LO:DY:rj	!	!LO:DY:rj
8AA'\Jyy	.	8AA'\J	.	8A/	.	(8c/	.	(>8e/	.	8e/	-rzeć	-de	.	8r	.	.	.	.	.	.	(8E\	.	(>8e/	.	8AA/J	8AA\J	.	&(8c (>8A/	8ryy	p	(8e/	(8e\	.	(8ee\	p	(8ee\	p
8GG'\Lyy	.	8GG'\L	.	4B/)	.	4B/)	.	4d#X/	.	4b\	dwo-	ster-	.	32BB/LLL	.	.	.	.	.	.	4D#X\	.	4d#X/	.	8GG/L	8GG\L	.	4.B/))	4.B\&)	.	4b/	4d#X\	.	4dd#X\	.	4bb\	.
.	.	.	.	.	.	.	.	.	.	.	.	.	.	32BB/	.	.	.	.	.	.	.	.	.	.	.	.	.	.	.	.	.	.	.	.	.	.	.
.	.	.	.	.	.	.	.	.	.	.	.	.	.	32BB/	.	.	.	.	.	.	.	.	.	.	.	.	.	.	.	.	.	.	.	.	.	.	.
.	.	.	.	.	.	.	.	.	.	.	.	.	.	32BB/	.	.	.	.	.	.	.	.	.	.	.	.	.	.	.	.	.	.	.	.	.	.	.
8FF#'\yy	.	8FF#'\	.	.	.	.	.	.	.	.	.	.	.	32BB/	.	.	.	.	.	.	.	.	.	.	8FF#/	8FF#\	.	.	.	.	.	.	.	.	.	.	.
.	.	.	.	.	.	.	.	.	.	.	.	.	.	32BB/	.	.	.	.	.	.	.	.	.	.	.	.	.	.	.	.	.	.	.	.	.	.	.
.	.	.	.	.	.	.	.	.	.	.	.	.	.	32BB/	.	.	.	.	.	.	.	.	.	.	.	.	.	.	.	.	.	.	.	.	.	.	.
.	.	.	.	.	.	.	.	.	.	.	.	.	.	32BB/	.	.	.	.	.	.	.	.	.	.	.	.	.	.	.	.	.	.	.	.	.	.	.
8EE'\Jyy	.	8EE'\J	.	8r	.	8B/	.	8e/)	.	8g/	-je	-ben	.	32BB/	.	.	.	.	.	.	8E\)	.	8e/)	.	8EE/J	8EE\J	.	.	.	.	8g/)	8e\)	.	8ee\)	.	8gg\)	.
.	.	.	.	.	.	.	.	.	.	.	.	.	.	32BB/	.	.	.	.	.	.	.	.	.	.	.	.	.	.	.	.	.	.	.	.	.	.	.
.	.	.	.	.	.	.	.	.	.	.	.	.	.	32BB/	.	.	.	.	.	.	.	.	.	.	.	.	.	.	.	.	.	.	.	.	.	.	.
.	.	.	.	.	.	.	.	.	.	.	.	.	.	32BB/JJJ	.	.	.	.	.	.	.	.	.	.	.	.	.	.	.	.	.	.	.	.	.	.	.
*	*	*	*	*	*	*	*	*	*	*	*	*	*	*Xtremolo	*	*	*	*	*	*	*	*	*	*	*	*	*	*	*	*	*	*	*	*	*	*	*
=39	=39	=39	=39	=39	=39	=39	=39	=39	=39	=39	=39	=39	=39	=39	=39	=39	=39	=39	=39	=39	=39	=39	=39	=39	=39	=39	=39	=39	=39	=39	=39	=39	=39	=39	=39	=39	=39
4AA/yy	.	4AA/	.	2.r	.	4c/	.	4e/	.	2.r	.	.	.	8E\	.	2.ryy	.	2.ryy	.	2.ryy	[4.E\	.	[>4.e/	.	4AA/	4AA\	.	[4.c/	[4.c\	.	(<8g/L	4e\	.	4ee'\	.	(8gg\L	.
.	.	.	.	.	.	.	.	.	.	.	.	.	.	8r	.	.	.	.	.	.	.	.	.	.	.	.	.	.	.	.	8f#/J)	.	.	.	.	8ff#\J)	.
16ryy	.	16r	.	.	.	16r	.	16r	.	.	.	.	.	8r	.	.	.	.	.	.	.	.	.	.	16r	16ryy	.	.	.	.	16r	16rc	.	16r	.	16r	.
!	!	!	!	!	!	!	!	!	!	!	!	!	!	!	!	!	!	!	!	!	!	!	!	!	!	!	!	!	!	!	!	!	!LO:HP:a	!	!	!	!
(16GG/yy	.	(16GG/	.	.	.	16c/	.	16e/	.	.	.	.	.	.	.	.	.	.	.	.	.	.	.	.	16GG/	16GG\	.	.	.	.	(<16g/	16e\	<	16ee'\	.	(16gg\	.
4FF#/)yy	.	4FF#/)	.	.	.	4c/	.	4e/	.	.	.	.	.	4r	.	.	.	.	.	.	4E\]	.	4e/]	.	4FF#/	4FF#\	.	4c/]	4c\]	.	8g#X/L	4e\	.	4ee\	.	8gg#X\L	.
.	.	.	.	.	.	.	.	.	.	.	.	.	.	.	.	.	.	.	.	.	.	.	.	.	.	.	.	.	.	.	8a/	.	.	.	.	8aa\	.
8r	.	8r	.	.	.	8r	.	8r	.	.	.	.	.	8r	.	.	.	.	.	.	8r	.	8r	.	8r	8ryy	.	8r	8ryy	.	8a#X/J	8r	.	8r	.	8aa#X\J	.
*	*	*	*	*	*	*	*	*	*	*	*	*	*	*	*	*	*	*	*	*	*	*	*	*	*v	*v	*	*	*	*	*v	*v	*	*	*	*	*
*	*	*	*	*	*	*	*	*	*	*	*	*	*	*	*	*	*	*	*	*v	*v	*	*	*	*	*	*v	*v	*	*	*	*	*	*	*
=40	=40	=40	=40	=40	=40	=40	=40	=40	=40	=40	=40	=40	=40	=40	=40	=40	=40	=40	=40	=40	=40	=40	=40	=40	=40	=40	=40	=40	=40	=40	=40	=40	=40
!	!	!	!	!	!	!	!	!	!	!LO:CL:ed	!	!	!	!	!	!	!	!	!	!	!	!	!	!	!	!	!	!	!	!	!	!	!
*	*	*	*	*	*	*	*	*	*	*clefF4	*	*	*	*	*	*	*	*	*	*	*	*	*	*	*	*	*	*	*	*	*	*	*
2.r	.	2.r	.	2.r	.	2.r	.	2.r	.	4r	.	.	.	2.ryy	.	2.ryy	.	2.ryy	.	2.ryy	.	2.ryy	.	2.ryy	.	2.ryy	.	8b/)	.	2.ryy	.	8bb'\)	.
!	!	!	!	!	!	!	!	!	!	!	!	!	!	!	!	!	!	!	!	!	!	!	!	!	!	!	!	!	!LO:DY:a	!	!	!	!LO:DY:a
.	.	.	.	.	.	.	.	.	.	.	.	.	.	.	.	.	.	.	.	.	.	.	.	.	.	.	.	[>4cc/	[ sf <	.	.	[4ccc\	sf <
.	.	.	.	.	.	.	.	.	.	8r	.	.	.	.	.	.	.	.	.	.	.	.	.	.	.	.	.	.	.	.	.	.	.
.	.	.	.	.	.	.	.	.	.	4r	.	.	.	.	.	.	.	.	.	.	.	.	.	.	.	.	.	4.cc/_>	.	.	.	4.ccc\_	.
.	.	.	.	.	.	.	.	.	.	8C/	Za-	Sie	p	.	.	.	.	.	.	.	.	.	.	.	.	.	.	.	.	.	.	.	.
=41	=41	=41	=41	=41	=41	=41	=41	=41	=41	=41	=41	=41	=41	=41	=41	=41	=41	=41	=41	=41	=41	=41	=41	=41	=41	=41	=41	=41	=41	=41	=41	=41	=41
4r	.	4r	.	4r	.	4r	.	4r	.	8.A\	-nad-	hat-	.	2.ryy	.	2.ryy	.	2.ryy	.	2.ryy	.	2.ryy	.	2.ryy	.	2.ryy	.	4cc/]	.	2.ryy	.	4ccc\]	.
.	.	.	.	.	.	.	.	.	.	16G\	-to	.	.	.	.	.	.	.	.	.	.	.	.	.	.	.	.	.	.	.	.	.	.
8r	.	8r	.	8r	.	8r	.	8r	.	8F#\	się	-ten	.	.	.	.	.	.	.	.	.	.	.	.	.	.	.	8r	[	.	.	8r	[
!LO:TX:b:t=piz	!LO:DY:rj	!LO:TX:b:t=piz	!LO:DY:rj	!LO:TX:b:t=piz	!LO:DY:rj	!LO:TX:b:t=piz	!LO:DY:rj	!LO:TX:b:t=piz	!LO:DY:rj	!	!	!	!	!	!	!	!	!	!	!	!	!	!	!	!	!	!	!	!	!	!	!	!
4B\	p	4BB/	p	4B\	p	4A/	p	4d#X/	p	8E\	o-	sich	.	.	.	.	.	.	.	.	.	.	.	.	.	.	.	4r	.	.	.	4r	.
.	.	.	.	.	.	.	.	.	.	8D#X\	-ni	viel	.	.	.	.	.	.	.	.	.	.	.	.	.	.	.	.	.	.	.	.	.
8r	.	8r	.	8r	.	8r	.	8r	.	16r	.	.	.	.	.	.	.	.	.	.	.	.	.	.	.	.	.	8r	.	.	.	8r	.
.	.	.	.	.	.	.	.	.	.	16B\	ko-	zu	.	.	.	.	.	.	.	.	.	.	.	.	.	.	.	.	.	.	.	.	.
=42	=42	=42	=42	=42	=42	=42	=42	=42	=42	=42	=42	=42	=42	=42	=42	=42	=42	=42	=42	=42	=42	=42	=42	=42	=42	=42	=42	=42	=42	=42	=42	=42	=42
4r;	.	4r;	.	4r;	.	4r;	.	4r;	.	4B\	-cha-	lieb.	.	2.ryy	.	2.ryy	.	2.ryy	.	2.ryy	.	2.ryy	.	2.ryy	.	2.ryy	.	2.ryy	.	2.ryy	.	2.ryy	.
8r	.	8r	.	8r	.	8r	.	8r	.	8E\	-li!	.	.	.	.	.	.	.	.	.	.	.	.	.	.	.	.	.	.	.	.	.	.
4E\	.	4E\	.	4B/	.	4G/	.	4e/	.	4r	.	.	.	.	.	.	.	.	.	.	.	.	.	.	.	.	.	.	.	.	.	.	.
8r	.	8r	.	8r	.	8r	.	8r	.	8r	.	.	.	.	.	.	.	.	.	.	.	.	.	.	.	.	.	.	.	.	.	.	.
==	==	==	==	==	==	==	==	==	==	==	==	==	==	==	==	==	==	==	==	==	==	==	==	==	==	==	==	==	==	==	==	==	==
*-	*-	*-	*-	*-	*-	*-	*-	*-	*-	*-	*-	*-	*-	*-	*-	*-	*-	*-	*-	*-	*-	*-	*-	*-	*-	*-	*-	*-	*-	*-	*-	*-	*-
!!!system-decoration: [g1]g2[g3]g4[g5]g6[g7]
!!!RDF**kern: > = above
!!!RDF**kern: < = below
!!!AIN: 2 cor 10 empty 1 fagot 1 oboe 1 viola 1 vox
!!!ENC: Katarzyna Serwa
!!!END: 2021-10-18
!!!ENC: Marcin Jachim
!!!END: 2021-09-10
